<?xml version="1.0" encoding="UTF-8"?>
<map version="1.10" tiledversion="1.12.2" orientation="orthogonal" renderorder="right-down" width="60" height="30" tilewidth="16" tileheight="16" infinite="0" nextlayerid="3" nextobjectid="8">
 <properties>
  <property name="boost_line-capacity" type="float" value="20000"/>
  <property name="cannon-count" type="int" value="3"/>
  <property name="line-capacity" type="float" value="20000"/>
 </properties>
 <tileset firstgid="1" source="tileset.tsx"/>
 <layer id="1" name="terrain" width="60" height="30">
  <data encoding="csv">
31,11,77,27,8,8,26,26,26,26,8,26,26,8,8,8,26,26,8,8,26,26,8,26,26,8,26,8,26,8,26,28,26,57,55,54,60,1,0,0,0,0,0,0,0,0,0,0,12,0,0,0,0,9,11,12,1,0,0,0,
13,15,60,49,0,0,0,0,0,0,0,0,0,0,0,0,0,0,0,0,0,0,0,0,0,0,0,0,0,0,0,49,49,81,56,33,31,77,27,4,0,0,0,0,0,0,0,0,5,6,11,12,2,57,15,31,10,12,0,0,
54,14,60,0,0,0,0,0,0,0,0,0,0,0,0,0,0,0,0,0,0,0,0,0,0,0,0,0,0,0,0,0,0,0,49,81,83,5,80,77,27,76,1,0,0,33,36,4,29,34,83,5,27,8,83,83,54,36,76,0,
33,15,60,0,0,0,0,0,0,0,0,0,0,0,0,0,0,0,0,0,0,0,0,0,0,0,0,0,0,0,0,0,0,0,0,0,49,49,33,60,26,6,77,76,1,81,59,77,8,84,49,49,49,0,0,49,33,31,7,76,
33,15,60,0,0,0,0,0,0,0,0,0,0,0,0,0,0,0,0,0,0,0,0,0,0,0,0,0,0,0,0,0,0,0,0,0,0,0,81,56,25,33,36,3,80,11,34,5,52,0,0,0,0,0,0,0,81,54,60,1,
30,16,60,0,0,0,0,0,0,0,0,0,0,0,0,0,0,0,0,0,0,0,0,0,0,0,0,0,0,0,0,0,0,0,0,0,0,0,0,49,49,33,31,10,30,55,56,49,0,0,0,0,0,0,0,0,0,81,59,10,
54,15,31,14,0,0,0,0,0,0,0,0,0,0,0,0,0,0,0,0,0,0,0,0,0,0,0,0,0,0,0,0,0,0,0,0,0,0,0,0,0,81,54,55,83,56,49,0,0,0,0,0,0,0,0,0,0,90,33,16,
30,14,13,14,0,0,0,0,0,0,0,0,0,0,0,0,0,0,0,0,0,0,0,0,0,0,0,0,0,0,0,0,0,0,0,0,0,0,0,0,0,9,30,60,0,0,0,0,0,0,0,0,0,0,0,0,0,0,33,15,
13,13,16,14,14,0,0,0,0,0,0,0,0,0,0,0,0,0,0,0,0,0,0,0,0,0,0,0,0,0,0,0,0,0,0,0,0,0,0,0,0,33,14,60,0,0,0,0,0,0,0,0,0,0,0,0,0,9,30,13,
15,55,83,14,14,14,14,14,14,14,80,0,0,0,0,0,0,0,0,0,0,0,0,0,0,0,0,0,0,0,0,0,0,0,0,0,0,0,0,0,0,33,55,59,0,0,0,0,0,0,0,0,0,0,0,0,0,81,54,55,
15,14,14,14,14,14,14,14,14,14,14,14,14,14,14,14,14,14,14,14,14,14,14,14,14,14,14,14,14,14,14,14,14,0,0,0,18,0,0,0,0,33,31,30,0,0,0,0,0,0,0,0,0,0,0,0,0,0,33,31,
14,31,14,14,0,0,0,0,0,0,0,0,0,0,0,0,0,0,0,0,0,0,0,0,0,0,0,0,0,0,0,0,0,0,0,0,0,0,0,0,0,33,16,16,0,0,0,0,0,0,0,0,0,0,0,0,0,9,30,14,
16,16,14,14,0,0,0,0,0,0,0,0,0,0,0,0,0,0,0,0,0,0,0,0,0,0,0,0,0,0,0,0,0,0,0,0,0,0,0,0,0,33,55,54,0,0,0,0,0,0,0,0,0,0,0,0,0,33,14,13,
54,16,14,14,0,0,0,0,0,0,0,0,0,0,0,0,0,0,0,0,0,0,0,0,0,0,0,0,0,0,0,0,0,0,0,0,0,0,0,0,0,33,60,81,0,0,0,0,0,0,0,0,0,0,0,0,0,81,82,54,
33,14,14,14,0,0,0,0,0,0,0,0,0,0,0,0,0,0,0,0,0,0,0,0,0,0,0,0,0,0,0,0,0,0,0,0,0,0,0,0,0,33,31,11,0,0,0,0,33,31,10,12,0,0,0,0,0,0,90,33,
30,16,14,14,0,0,0,0,0,0,0,0,0,0,0,0,0,0,0,0,0,0,0,0,0,0,0,0,0,0,0,0,0,0,0,0,0,0,0,0,0,81,54,16,0,0,0,0,33,13,55,84,0,0,0,0,0,0,0,33,
54,15,60,0,0,0,0,0,0,0,0,0,0,0,0,0,0,0,0,0,0,0,0,0,0,0,0,0,0,0,0,0,0,0,0,0,0,0,79,4,3,6,30,16,0,0,0,0,78,54,60,0,0,0,0,0,0,0,0,33,
33,16,60,0,0,0,0,0,0,0,0,9,11,11,11,11,11,11,10,30,31,30,31,30,15,15,14,15,14,31,11,11,11,30,16,30,4,30,31,7,26,8,8,91,0,0,0,0,7,57,36,76,0,0,0,0,0,0,9,30,
30,16,60,0,0,0,0,0,0,0,59,30,55,54,15,14,16,16,14,15,16,15,14,14,13,55,83,83,83,83,83,83,83,83,83,8,8,26,8,27,0,0,0,0,0,0,0,0,60,33,60,0,0,0,0,0,0,0,81,54,
16,14,60,0,0,0,0,0,0,0,81,83,5,8,83,83,83,83,83,83,83,83,83,83,83,5,51,51,52,50,51,51,51,52,49,0,0,0,0,0,0,0,0,0,0,0,0,0,84,33,60,0,0,0,0,0,0,0,9,30,
14,15,60,0,0,0,0,0,0,0,0,0,0,0,0,0,0,0,0,0,0,0,0,0,0,0,0,0,0,0,0,0,0,0,0,0,0,0,0,0,0,0,0,0,0,0,0,0,9,30,60,0,0,0,0,0,0,0,33,14,
54,14,60,0,0,0,0,0,0,0,0,0,0,0,0,0,0,0,0,0,0,0,0,0,0,0,0,0,0,0,0,0,0,0,0,0,0,0,0,0,0,0,0,0,0,0,0,0,30,14,60,0,0,0,0,0,0,0,81,54,
33,14,60,0,0,0,0,0,0,0,0,0,0,0,0,0,0,0,0,0,0,0,0,0,0,0,0,0,0,0,0,0,0,0,0,0,0,0,0,0,0,0,0,0,0,0,0,33,55,54,60,0,0,0,0,0,0,0,9,30,
33,13,60,0,0,0,0,0,0,0,0,0,0,0,0,0,0,0,0,0,0,0,0,0,0,0,0,0,0,0,0,0,0,0,0,0,0,0,0,0,0,0,0,0,0,0,0,78,59,34,84,0,0,0,0,0,0,0,81,54,
30,15,31,12,0,0,0,0,0,0,0,0,0,0,0,0,0,0,0,0,0,0,0,0,0,0,0,0,0,0,0,0,0,0,0,0,0,0,0,0,0,0,0,0,0,0,0,7,57,36,76,0,0,0,0,0,0,0,0,33,
55,54,16,60,0,0,0,0,0,0,0,0,0,0,0,0,0,0,0,0,0,0,0,0,0,0,0,0,0,0,0,0,0,0,0,0,0,0,0,0,0,0,0,0,0,0,0,60,33,60,0,0,0,0,0,0,0,0,9,30,
31,30,15,60,26,76,0,0,0,0,0,0,0,0,0,0,0,0,0,0,0,0,0,0,0,0,0,0,0,0,0,0,0,0,0,0,0,0,0,0,0,0,0,79,30,30,4,31,30,60,0,0,0,0,0,0,0,0,81,54,
54,14,13,31,10,12,4,30,4,30,30,4,4,4,30,4,30,4,30,30,30,4,30,30,30,4,4,4,30,11,10,30,15,14,31,10,11,11,11,30,10,11,12,2,78,82,5,8,83,84,0,0,0,0,0,0,0,0,12,33,
30,13,13,14,15,31,15,15,15,15,15,15,15,15,15,15,15,15,15,15,15,15,15,15,15,15,15,15,15,14,16,13,16,15,16,13,13,13,13,13,16,16,31,10,11,7,27,27,76,80,0,0,0,0,0,0,0,0,59,30,
13,55,83,83,83,83,26,26,8,26,26,8,26,8,26,8,8,26,26,8,26,26,8,26,26,26,26,26,8,54,13,16,16,16,16,16,16,15,15,16,16,14,13,16,16,31,10,77,6,29,4,30,30,4,4,4,30,4,30,55
</data>
 </layer>
 <objectgroup id="2" name="game">
  <object id="2" name="finish-line" x="913.333" y="338.667">
   <polygon points="0,0 -1.33333,122.667 28,122.667 28,-2.66667"/>
  </object>
  <object id="3" name="ball-spawn" x="66" y="70">
   <point/>
  </object>
  <object id="6" name="anti-gravity" x="653.123" y="285.206">
   <properties>
    <property name="gravity-angle" type="float" value="200"/>
   </properties>
   <polygon points="0,0 45.3532,136.06 93.541,136.06 121.887,79.3681 126.139,-117.635 46.7705,-117.635"/>
  </object>
  <object id="7" name="anti-gravity" x="706" y="154">
   <properties>
    <property name="gravity-angle" type="float" value="180"/>
   </properties>
   <polygon points="0,0 80,4 80.6667,80 220,84.6667 224.667,-41.3333 178,-104.667 92,-106 -2.66667,-40"/>
  </object>
 </objectgroup>
</map>
