<?xml version="1.0" encoding="UTF-8"?>
<map version="1.10" tiledversion="1.12.2" orientation="orthogonal" renderorder="right-down" width="60" height="30" tilewidth="16" tileheight="16" infinite="0" nextlayerid="3" nextobjectid="6">
 <properties>
  <property name="boost_line-capacity" type="float" value="20000"/>
  <property name="cannon-count" type="int" value="3"/>
  <property name="line-capacity" type="float" value="20000"/>
 </properties>
 <tileset firstgid="1" source="tileset.tsx"/>
 <layer id="1" name="terrain" width="60" height="30">
  <data encoding="csv">
36,3,8,8,26,8,26,26,8,8,9,29,30,4,4,30,28,81,83,59,11,11,12,0,9,11,11,11,12,1,74,75,75,76,0,0,0,0,0,0,0,0,0,0,0,0,0,0,0,0,0,0,0,0,0,0,0,0,0,0,
31,32,0,0,0,0,0,0,0,0,90,26,8,8,26,9,29,11,10,30,14,14,31,11,30,55,83,54,60,49,0,0,0,0,74,4,9,11,12,9,12,1,0,0,0,0,0,0,0,0,0,0,0,0,0,0,0,0,0,0,
55,84,0,0,0,0,0,0,0,0,0,0,0,0,0,90,8,8,83,83,83,83,83,83,83,5,28,33,31,11,30,30,30,4,4,10,30,14,31,30,36,80,12,0,0,0,0,0,0,0,0,0,0,0,0,0,0,0,0,0,
60,0,0,0,0,0,0,0,0,0,0,0,0,0,0,0,0,0,0,0,0,0,0,0,0,0,90,26,8,26,8,26,8,26,26,83,83,83,83,83,56,33,31,7,27,76,0,0,0,0,0,0,0,0,0,0,0,0,0,0,
31,12,0,0,0,0,0,0,0,0,0,0,0,0,0,0,0,0,0,0,0,0,0,0,0,0,0,0,0,0,0,0,0,0,0,0,0,0,49,49,49,53,83,79,27,75,76,0,0,0,0,0,0,0,0,0,0,0,0,0,
16,60,0,0,0,0,0,0,0,0,0,0,0,0,0,0,0,0,0,0,0,0,0,0,0,0,0,0,0,0,0,0,0,0,0,0,0,0,0,0,0,0,49,9,77,6,12,0,0,0,0,0,0,0,0,0,0,0,0,0,
83,84,0,0,0,0,0,0,0,0,0,0,0,0,0,0,0,0,0,0,0,0,0,0,0,0,0,0,0,0,0,0,0,0,0,0,0,0,0,0,0,0,0,81,56,81,59,12,0,0,0,0,0,0,0,0,0,0,0,0,
25,9,12,0,0,0,0,0,0,0,0,0,0,0,0,0,0,0,0,0,0,0,0,0,0,0,0,0,0,0,0,0,0,0,0,0,0,0,0,0,0,0,0,0,84,1,81,56,0,0,0,0,0,0,0,0,0,0,0,0,
29,34,59,12,0,0,0,0,0,0,0,0,0,0,0,0,0,0,0,0,0,0,0,0,0,0,0,0,0,0,0,0,0,0,0,0,0,0,0,0,0,0,0,0,0,32,9,10,12,0,0,0,0,0,0,0,0,0,0,0,
81,59,30,31,12,0,0,0,0,0,0,0,0,0,0,0,0,0,0,0,0,0,0,0,0,0,0,0,0,0,0,0,0,0,0,0,0,0,0,0,0,0,0,0,0,90,33,55,5,4,0,0,0,0,0,0,0,0,0,0,
0,81,54,16,31,12,0,0,0,0,0,0,0,0,0,0,0,0,0,0,0,0,0,0,0,0,0,0,0,0,0,0,0,0,0,0,0,0,0,0,0,0,0,0,0,0,81,59,32,50,4,0,0,0,0,0,0,0,0,0,
0,0,81,54,14,31,12,1,0,0,0,0,0,0,0,0,0,0,0,0,0,0,0,0,0,0,0,0,0,0,0,0,0,0,0,0,0,0,0,0,0,0,0,0,0,0,90,9,49,0,26,6,12,0,0,0,0,0,0,0,
0,0,0,81,54,16,31,10,12,1,0,0,0,0,0,0,0,0,0,0,0,0,0,0,0,0,0,0,0,79,4,4,80,0,0,0,0,0,0,0,0,0,0,0,0,0,0,14,29,4,28,81,5,6,12,0,0,0,0,0,
0,0,0,0,81,83,54,13,60,29,12,9,12,0,0,0,0,0,0,0,0,0,0,0,0,0,79,30,4,31,7,26,27,0,0,0,0,0,0,0,0,0,0,0,0,0,0,90,26,9,29,11,77,8,59,12,0,0,0,0,
0,0,0,0,0,49,81,82,79,57,31,30,31,12,2,3,3,27,3,57,31,4,30,4,30,4,31,7,26,9,29,4,30,4,80,0,0,0,0,0,0,0,0,0,0,0,0,0,0,90,8,26,59,77,8,59,12,1,0,0,
0,0,0,0,0,0,0,0,0,81,82,82,54,36,27,80,10,10,10,34,5,51,80,10,7,3,78,91,0,74,78,5,78,59,18,0,0,0,0,0,0,0,0,0,0,0,0,0,0,0,0,0,90,27,28,33,60,25,9,12,
0,0,0,0,0,0,0,0,0,0,0,0,53,5,27,8,83,83,54,31,10,11,30,13,31,10,11,12,9,11,11,10,11,30,31,12,0,0,0,0,0,0,0,0,0,0,0,0,0,0,0,0,0,0,49,53,59,77,8,56,
0,0,0,0,0,0,0,0,0,0,0,0,90,8,9,10,10,32,33,15,15,13,55,83,82,82,82,84,81,82,82,82,82,54,13,60,0,0,0,0,0,0,0,0,0,0,0,0,0,0,0,0,0,0,0,0,90,26,29,10,
0,0,0,0,0,0,0,0,0,0,0,0,0,0,90,9,15,29,31,15,15,55,84,49,0,0,0,0,0,0,0,0,0,81,54,60,0,0,0,0,0,0,0,0,0,0,0,0,0,0,0,0,0,0,0,0,0,0,30,15,
0,0,0,0,0,0,0,0,0,0,0,0,0,0,0,90,26,9,15,15,7,91,0,0,0,0,0,0,0,0,0,0,0,20,81,56,0,0,0,0,0,0,0,0,0,0,0,0,0,0,0,0,0,0,0,0,0,0,14,15,
0,0,0,0,0,0,0,0,0,0,0,0,0,0,0,0,0,90,26,26,27,0,0,0,0,0,0,0,0,0,0,0,0,14,12,29,12,0,0,0,0,0,0,0,0,0,0,0,0,0,0,0,0,0,0,0,0,0,20,15,
0,0,0,0,0,0,0,0,0,0,0,0,0,0,0,0,0,0,0,0,0,0,0,0,0,0,0,0,0,0,0,0,0,14,60,81,59,12,0,0,0,0,0,0,0,0,0,0,0,0,0,0,0,0,0,0,0,0,20,15,
0,0,0,0,0,0,0,0,0,0,0,0,0,0,0,0,0,0,0,0,0,0,0,0,0,0,0,0,0,0,0,0,0,14,31,12,33,60,0,0,0,0,0,0,0,0,0,0,0,0,0,0,0,0,0,0,0,0,20,15,
0,0,0,0,0,0,0,0,0,0,0,0,0,0,0,0,0,0,0,0,0,0,0,0,0,0,0,0,0,0,0,0,0,14,16,0,81,56,0,0,0,0,0,0,0,0,0,0,0,0,0,0,0,0,0,0,0,0,20,15,
0,0,0,0,0,0,0,0,0,0,0,0,0,0,0,0,0,0,0,0,0,0,0,0,0,0,0,0,0,0,0,0,0,14,29,80,0,29,12,9,12,0,0,1,0,0,0,0,0,0,0,0,0,0,0,0,0,0,0,15,
0,0,0,0,0,0,0,0,0,0,0,0,0,0,0,0,0,0,0,0,0,0,0,0,0,0,0,0,0,0,0,0,0,90,9,29,6,30,31,30,31,11,11,10,11,12,0,0,0,0,0,0,0,0,0,0,0,0,0,15,
0,0,0,0,0,0,0,0,0,0,0,0,0,0,0,0,0,0,0,0,0,0,0,0,0,0,0,0,0,0,0,0,0,0,90,26,53,83,83,83,83,83,54,15,55,59,12,0,1,0,0,0,0,0,0,0,0,0,0,15,
0,0,0,0,0,0,0,0,0,0,0,0,0,0,0,0,0,0,0,0,0,0,0,0,0,0,0,0,0,0,0,0,0,0,0,0,0,49,49,49,49,49,81,83,84,53,59,12,29,12,1,0,0,0,0,0,0,0,0,15,
0,0,0,0,0,0,0,0,0,0,0,0,0,0,0,0,0,0,0,0,0,0,0,0,0,0,0,0,0,0,0,0,0,0,0,0,0,0,0,0,0,0,0,0,74,27,8,59,30,31,10,11,0,0,0,0,0,0,0,3,
0,0,0,0,0,0,0,0,0,0,0,0,0,0,0,0,0,0,0,0,0,0,0,0,0,0,0,0,0,0,0,0,0,0,0,0,0,0,0,0,0,0,0,0,0,0,49,81,83,54,14,15,13,31,30,15,31,11,10,10
</data>
 </layer>
 <objectgroup id="2" name="game">
  <object id="2" name="finish-line" x="913.333" y="338.667">
   <polygon points="0,0 -1.33333,122.667 28,122.667 28,-2.66667"/>
  </object>
  <object id="3" name="ball-spawn" x="37.3333" y="58.6667">
   <point/>
  </object>
 </objectgroup>
</map>
