<?xml version="1.0" encoding="UTF-8"?>
<map version="1.10" tiledversion="1.12.2" orientation="orthogonal" renderorder="right-down" width="60" height="30" tilewidth="16" tileheight="16" infinite="0" nextlayerid="3" nextobjectid="7">
 <properties>
  <property name="boost_line-capacity" type="float" value="20000"/>
  <property name="cannon-count" type="int" value="3"/>
  <property name="line-capacity" type="float" value="20000"/>
 </properties>
 <tileset firstgid="1" source="tileset.tsx"/>
 <tileset firstgid="289" source="../background/images.tsx"/>
 <objectgroup id="2" name="game" opacity="0.37">
  <object id="2" name="finish-line" x="825.515" y="18.2982">
   <polygon points="0,0 -5.51514,105.702 115.818,105.702 115.818,-2.29788"/>
  </object>
  <object id="3" name="ball-spawn" x="180" y="126.667">
   <point/>
  </object>
  <object id="6" gid="289" x="-0.333333" y="480.333" width="962" height="480.667"/>
 </objectgroup>
 <layer id="1" name="terrain" width="60" height="30">
  <data encoding="csv">
15,15,13,16,14,16,16,13,15,13,15,14,14,16,15,15,16,16,16,16,16,16,13,16,13,14,14,16,15,15,55,82,82,82,82,82,82,82,82,82,82,54,16,16,14,13,13,14,15,15,55,82,82,82,82,82,82,82,54,15,
15,15,14,16,15,14,13,13,13,55,82,82,82,54,55,82,82,82,82,82,82,82,82,82,82,82,82,82,82,82,84,86,86,86,86,86,86,86,86,86,86,81,54,14,55,54,13,15,13,15,60,86,86,86,86,86,86,86,0,15,
14,16,14,16,55,82,82,82,54,60,86,86,86,81,84,86,86,86,86,86,86,86,86,86,86,86,86,86,86,86,86,86,86,86,86,86,86,86,86,86,86,86,33,14,31,30,14,14,13,15,60,86,86,86,86,86,86,86,0,15,
15,16,15,13,60,86,86,86,81,84,86,86,86,86,86,86,86,86,86,86,86,86,86,86,86,86,86,86,86,86,86,86,86,86,86,86,86,86,86,86,86,86,81,54,16,16,16,15,15,15,60,86,86,86,86,86,86,86,0,13,
14,16,55,82,79,76,86,86,86,86,86,86,86,86,86,86,86,86,86,86,86,86,86,86,86,86,86,86,86,86,86,86,86,86,86,86,86,86,86,86,86,86,86,33,15,13,15,15,16,15,60,86,86,86,86,86,86,86,0,54,
13,13,60,86,86,86,86,86,86,86,86,86,86,86,86,86,86,86,86,86,86,86,86,86,86,86,86,86,86,86,86,86,86,86,86,86,86,86,86,86,86,86,86,81,54,13,13,13,13,16,60,86,86,86,86,86,86,86,0,33,
13,15,60,86,86,86,86,86,86,86,86,86,86,86,86,86,86,86,86,86,86,86,86,86,86,86,86,86,86,86,86,86,86,86,86,86,86,86,86,86,86,86,86,86,33,16,16,15,15,14,60,86,86,86,86,86,86,86,86,33,
16,14,31,11,11,11,12,86,86,86,86,86,86,86,86,86,86,86,86,86,86,86,86,86,86,86,86,86,86,86,86,86,86,86,86,86,86,86,86,86,86,86,86,86,81,54,14,14,16,55,84,86,86,86,86,86,86,86,86,33,
16,15,16,14,13,13,60,86,86,86,86,86,86,86,86,86,86,86,86,86,86,86,86,86,86,86,86,86,86,86,86,86,86,86,86,86,86,86,86,86,86,86,86,86,86,33,14,14,13,60,86,86,86,86,86,86,86,86,86,33,
16,13,14,13,15,55,84,86,86,86,86,86,86,86,86,86,86,86,86,86,86,86,86,86,86,86,86,86,86,86,86,86,86,86,86,86,86,86,86,86,86,86,86,86,86,33,16,15,15,60,86,86,86,86,86,86,86,86,86,33,
16,15,14,55,82,84,86,86,86,86,86,86,86,86,86,86,86,86,86,86,86,86,86,86,86,86,86,86,86,86,86,86,86,86,86,86,86,86,86,86,86,86,86,86,86,33,16,55,82,84,86,86,86,86,86,86,86,86,86,33,
14,14,55,84,86,86,86,86,86,86,86,86,86,86,86,86,86,86,86,86,86,86,86,86,86,86,86,86,86,86,86,86,86,86,86,86,86,86,86,86,86,86,86,86,9,30,14,60,86,86,86,86,86,86,86,86,86,86,86,33,
16,55,84,86,86,86,86,86,86,86,86,86,86,86,86,86,86,86,86,86,86,86,86,86,86,86,86,86,86,86,86,86,86,86,86,86,86,86,86,86,86,86,86,86,33,16,55,84,86,86,86,86,86,86,86,86,86,86,86,33,
14,60,86,86,86,86,86,86,86,86,86,86,86,86,86,86,86,86,86,86,86,86,86,86,86,86,86,86,86,86,86,86,86,86,86,86,86,86,86,0,86,86,86,9,30,15,60,86,86,86,86,86,86,86,86,86,86,86,86,33,
16,60,86,86,86,86,86,86,86,86,86,86,86,86,86,86,86,86,86,86,86,86,86,86,86,86,86,86,86,86,86,86,86,86,86,86,86,86,86,86,86,86,86,33,15,55,84,86,86,86,86,86,86,86,86,86,86,86,86,33,
16,60,86,86,86,86,86,86,86,86,86,86,86,86,86,86,86,86,86,86,86,86,86,86,86,86,9,7,75,76,86,86,86,86,86,86,86,86,86,86,86,86,86,33,16,60,86,86,86,86,86,86,86,86,86,86,86,86,86,33,
15,60,86,86,86,86,86,86,86,86,86,86,86,86,86,86,86,86,86,86,86,86,86,86,86,9,30,31,12,86,86,86,86,86,86,86,86,86,86,86,86,86,9,30,15,60,86,86,86,86,86,86,86,86,86,86,86,86,86,33,
16,60,86,86,86,86,86,86,86,86,86,86,86,86,0,86,86,86,86,86,86,86,86,86,86,33,13,14,60,86,86,86,86,86,86,86,86,86,86,86,86,9,30,16,55,84,86,86,86,86,86,86,86,86,86,86,86,86,86,33,
13,60,86,86,86,86,86,86,86,86,86,86,86,0,86,86,86,86,86,86,86,86,86,9,11,30,15,55,84,86,86,86,86,86,86,86,86,86,86,86,86,33,15,16,60,86,86,86,86,86,86,86,86,86,86,86,86,86,86,33,
13,31,12,86,86,86,86,86,86,86,86,86,86,86,86,86,86,86,86,86,86,86,9,30,14,13,55,84,86,86,86,86,86,86,86,86,86,86,86,86,86,33,14,55,84,86,86,86,86,86,86,86,86,86,86,86,86,86,86,33,
16,15,60,86,86,86,86,86,86,86,86,86,86,86,86,86,86,86,86,86,86,86,33,15,16,14,60,86,86,86,86,86,86,86,86,86,86,86,86,86,86,33,16,60,86,86,86,86,86,86,86,86,86,86,86,86,86,86,86,33,
15,16,60,86,86,86,86,86,86,86,86,86,86,86,86,86,86,86,86,86,86,9,30,15,13,55,84,86,86,86,86,86,86,86,86,86,86,86,86,86,86,81,82,84,86,86,86,86,86,86,86,86,86,86,86,86,86,86,86,33,
13,13,60,86,86,86,86,86,86,86,86,86,86,86,86,86,86,86,86,86,9,30,13,16,55,84,86,86,86,86,86,86,86,86,86,86,86,86,86,86,86,86,86,86,86,86,86,86,86,86,86,86,86,86,86,86,86,86,86,33,
15,15,31,11,12,86,86,86,86,86,86,86,86,86,86,86,86,86,86,9,30,13,16,13,60,86,86,86,86,86,86,86,86,86,86,86,86,86,86,86,86,86,86,86,86,86,86,86,86,86,86,86,86,86,86,86,86,86,86,33,
13,15,16,13,31,12,86,86,86,86,86,86,86,86,86,86,86,86,9,30,15,15,13,55,84,86,86,86,86,86,86,86,86,86,86,86,86,86,86,86,86,86,86,86,86,86,86,86,86,86,86,86,86,86,86,86,86,86,86,33,
13,16,14,16,15,60,86,86,86,86,86,86,86,86,86,86,86,9,30,15,13,13,55,84,86,86,86,86,86,86,86,86,86,86,86,86,86,86,86,86,86,86,86,86,86,86,86,86,86,86,86,86,86,86,86,86,86,86,86,33,
15,14,15,15,15,60,86,86,86,86,86,86,86,86,9,11,11,30,14,16,16,13,31,12,86,86,86,86,86,86,86,86,86,86,86,86,86,86,86,86,86,86,86,86,86,86,86,86,86,86,86,86,86,86,86,86,86,86,86,33,
14,14,16,14,13,31,12,86,86,86,86,86,86,86,33,15,14,15,16,16,13,14,14,60,86,86,86,86,86,86,86,86,86,86,86,86,86,86,86,86,86,86,86,86,86,86,86,86,86,86,86,86,86,86,86,86,86,86,86,33,
13,15,14,13,16,14,31,11,11,11,11,11,11,11,30,14,16,13,15,16,13,13,15,31,11,11,11,12,86,86,86,86,86,86,86,86,86,86,86,86,86,86,86,86,86,86,86,86,86,86,86,86,86,86,86,86,86,86,86,33,
16,55,54,14,13,16,14,16,14,13,16,16,15,16,13,14,14,16,16,14,14,13,16,13,16,15,16,31,11,11,11,11,11,11,11,11,11,11,11,11,11,11,11,11,11,11,11,11,11,11,11,11,11,11,11,11,11,11,11,30
</data>
 </layer>
</map>
