<?xml version="1.0" encoding="UTF-8"?>
<map version="1.10" tiledversion="1.12.2" orientation="orthogonal" renderorder="right-down" width="60" height="30" tilewidth="16" tileheight="16" infinite="0" nextlayerid="3" nextobjectid="9">
 <properties>
  <property name="boost_line-capacity" type="float" value="20000"/>
  <property name="cannon-count" type="int" value="3"/>
  <property name="line-capacity" type="float" value="20000"/>
 </properties>
 <tileset firstgid="1" source="tileset.tsx"/>
 <tileset firstgid="289" source="../act-3/tileset.tsx"/>
 <layer id="1" name="terrain" width="60" height="30">
  <data encoding="csv">
31,321,302,302,303,301,343,370,370,370,370,370,370,370,370,370,370,370,370,370,370,370,370,370,370,370,370,370,370,370,370,342,301,302,302,304,304,301,302,301,343,342,303,301,304,304,303,303,302,304,302,302,304,304,301,301,304,302,304,319,
297,318,302,301,304,343,372,0,0,0,0,0,0,0,0,0,0,0,0,0,0,0,0,0,0,0,0,0,0,0,0,369,370,342,301,301,302,302,301,301,319,318,303,301,301,303,303,303,301,304,302,302,304,302,302,302,301,301,302,302,
318,304,301,301,343,372,0,0,0,0,0,0,0,0,0,0,0,0,0,0,0,0,0,0,0,0,0,0,0,0,0,0,0,369,370,370,342,302,303,303,304,301,301,303,303,304,302,304,301,304,343,370,370,370,370,342,301,304,304,303,
304,304,301,303,348,0,0,0,0,0,0,0,0,0,0,0,0,0,0,0,0,0,0,0,0,0,0,0,0,0,0,0,0,0,0,0,369,370,342,303,302,303,304,304,304,304,304,302,343,370,372,0,0,0,0,369,370,342,303,303,
301,303,301,301,348,0,0,0,0,0,0,0,0,0,0,0,0,0,0,0,0,0,0,0,0,0,0,0,0,0,0,0,0,0,0,0,0,0,369,370,370,370,342,301,304,303,343,370,372,0,0,0,0,0,0,0,90,321,303,302,
304,302,301,304,348,0,0,0,0,0,0,0,0,0,0,0,0,0,0,0,0,0,0,0,0,0,0,0,0,0,0,0,0,0,0,0,0,0,0,0,0,90,321,301,302,343,372,0,0,0,0,0,0,0,0,0,0,369,342,304,
304,301,303,303,348,0,0,0,0,0,0,0,0,0,0,0,0,0,0,0,0,0,0,0,0,0,0,0,0,0,0,0,0,0,0,0,0,0,0,0,0,0,321,343,370,372,0,0,0,0,0,0,0,0,0,0,0,90,321,301,
303,303,304,302,348,0,0,0,0,0,0,0,0,0,0,0,0,0,0,0,0,0,0,0,0,0,0,0,0,0,0,0,0,0,0,0,0,0,0,0,0,0,321,348,0,0,0,0,0,0,0,0,0,0,0,0,0,0,321,303,
302,304,304,301,348,0,0,0,0,0,0,0,0,0,0,0,0,0,0,0,0,0,0,0,0,0,0,0,0,0,0,0,0,0,0,0,0,0,0,0,0,0,321,348,0,0,0,0,0,0,0,0,0,0,0,0,0,0,321,301,
301,304,302,302,319,299,299,299,299,299,300,0,0,0,0,0,0,0,0,0,0,0,0,0,0,0,0,0,0,0,0,0,0,0,0,0,0,0,0,0,0,0,321,348,0,0,0,0,0,0,0,0,0,0,0,0,0,0,321,302,
302,302,303,343,370,370,370,370,370,370,347,299,299,299,299,299,299,299,299,299,299,299,299,299,299,299,299,299,299,299,299,299,299,299,299,299,300,0,0,0,0,0,321,348,0,0,0,0,0,0,0,0,0,0,0,0,0,0,321,303,
302,303,302,348,0,0,0,0,0,90,369,370,370,370,370,370,370,370,370,370,370,370,370,370,370,370,370,370,370,370,370,370,370,370,370,370,372,0,0,0,0,0,321,348,0,0,0,0,0,0,0,0,0,0,0,0,0,0,321,301,
302,301,304,348,0,0,0,0,0,0,0,0,0,0,0,0,0,0,0,0,0,0,0,0,0,0,0,0,0,0,0,0,0,0,0,0,0,0,0,0,0,0,321,348,0,0,0,0,0,0,0,0,0,0,0,0,0,0,369,342,
304,301,301,348,0,0,0,0,0,0,0,0,0,0,0,0,0,0,0,0,0,0,0,0,0,0,0,0,0,0,0,0,0,0,0,0,0,0,0,0,0,0,321,348,0,0,0,0,0,0,0,0,0,0,0,0,0,0,20,321,
301,302,303,348,0,0,0,0,0,0,0,0,0,0,0,0,0,0,0,0,0,0,0,0,0,0,0,0,0,0,0,0,0,0,0,0,0,0,0,0,0,0,321,348,0,0,0,0,0,0,0,0,0,0,0,0,0,0,90,321,
304,301,303,348,0,0,0,0,0,0,0,0,0,0,0,0,0,0,0,0,0,0,0,0,0,0,0,0,0,0,0,0,0,0,0,0,0,0,0,0,0,0,321,348,0,0,0,0,0,0,0,0,0,0,0,0,0,0,0,321,
304,301,304,348,0,0,0,0,0,0,0,0,0,0,0,0,0,0,0,0,0,0,0,0,0,0,0,0,0,0,0,297,299,299,299,299,299,299,299,299,299,299,318,348,0,0,0,0,0,0,0,0,0,0,0,0,0,0,0,321,
301,302,301,348,0,0,0,0,0,0,0,0,0,0,0,0,0,297,299,299,299,299,299,299,299,299,299,299,299,299,299,318,304,303,303,302,304,303,301,303,302,303,303,348,0,0,0,0,0,0,0,0,0,0,0,0,0,0,0,321,
302,301,302,348,0,0,0,0,0,0,297,299,299,299,299,299,295,345,301,303,301,303,304,304,304,302,304,301,302,303,302,303,304,343,370,370,370,370,370,370,342,303,304,348,0,0,0,0,0,0,0,0,0,0,0,0,0,0,0,321,
342,304,303,348,0,0,0,0,0,0,369,370,370,370,370,370,367,366,370,370,370,370,370,370,370,370,370,370,370,370,370,370,370,372,0,0,0,0,0,0,369,370,370,372,0,0,0,0,0,0,0,0,0,0,0,0,0,0,0,321,
321,303,343,372,0,0,0,0,0,0,0,0,0,0,0,0,0,0,0,0,0,0,0,0,0,0,0,0,0,0,0,0,0,0,0,0,0,0,0,0,0,0,0,0,0,0,0,0,0,0,0,0,0,0,0,0,0,0,0,321,
318,304,348,0,0,0,0,0,0,0,0,0,0,0,0,0,0,0,0,0,0,0,0,0,0,0,0,0,0,0,0,0,0,0,0,0,0,0,0,0,0,0,0,0,0,0,0,0,0,0,0,0,0,0,0,0,0,0,0,321,
302,303,348,0,0,0,0,0,0,0,0,0,0,0,0,0,0,0,0,0,0,0,0,0,0,0,0,0,0,0,0,0,0,0,0,0,0,0,0,0,0,0,0,0,0,0,0,0,0,0,0,0,0,0,0,0,0,0,0,321,
302,302,348,0,0,0,0,0,0,0,0,0,0,0,0,0,0,0,0,0,0,0,0,0,0,0,0,0,0,0,0,0,0,0,0,0,0,0,0,0,0,0,0,0,0,0,0,0,0,0,0,0,0,0,0,0,0,0,0,321,
304,303,348,0,0,0,0,0,0,0,0,0,0,0,0,0,0,0,0,0,0,0,0,0,0,0,0,0,0,0,0,0,0,0,0,0,0,0,0,0,0,0,0,0,0,0,0,0,0,0,0,0,0,0,0,0,0,0,0,321,
304,302,319,300,0,0,0,0,0,0,0,0,0,0,0,0,0,0,0,0,0,0,0,0,0,0,0,0,0,0,0,0,0,0,0,0,0,0,0,0,0,0,0,0,0,0,0,0,0,0,0,0,0,0,0,0,0,0,0,321,
301,301,302,319,300,0,0,0,0,0,0,0,0,0,0,0,0,0,297,299,299,299,299,299,299,299,300,0,0,0,0,0,0,0,0,0,0,0,0,0,0,0,0,0,0,0,0,0,0,0,0,0,0,0,0,0,0,0,0,321,
304,304,303,304,319,299,299,299,299,299,299,299,299,299,299,299,299,299,318,302,301,301,302,303,303,304,319,299,299,299,299,299,299,299,299,299,299,299,299,299,299,299,299,299,299,299,299,300,0,0,0,0,0,0,0,0,0,0,0,321,
301,304,304,302,304,304,303,302,302,303,301,304,301,303,304,302,304,303,301,302,304,301,301,304,301,301,304,304,302,304,301,302,304,303,301,301,302,301,304,303,302,304,304,304,303,303,301,319,299,299,300,0,0,0,0,0,0,0,297,318,
303,303,303,302,302,301,302,301,301,304,303,302,304,301,303,301,301,304,301,303,302,302,301,304,304,303,304,303,302,303,303,303,301,303,304,301,304,303,304,303,303,301,304,302,301,301,302,303,303,302,319,299,299,299,299,299,299,299,318,304
</data>
 </layer>
 <objectgroup id="2" name="game">
  <object id="2" name="finish-line" x="75.9997" y="17.3337">
   <polygon points="0,-1.33333 -1.33333,122.667 28,122.667 28,-2.66667"/>
  </object>
  <object id="3" name="ball-spawn" x="914.667" y="453.333">
   <point/>
  </object>
  <object id="6" x="-154.545" y="-215.152" width="1442.42" height="778.788"/>
  <object id="7" name="anti-gravity" x="137.333" y="22.6667">
   <properties>
    <property name="gravity-angle" type="float" value="180"/>
   </properties>
   <polygon points="0,0 -5.33333,128 -96,137.333 -116,398.667 -34.6667,441.333 816,446.667 814.667,-14.6667"/>
  </object>
 </objectgroup>
</map>
