<?xml version="1.0" encoding="UTF-8"?>
<map version="1.10" tiledversion="1.12.2" orientation="orthogonal" renderorder="right-down" width="60" height="30" tilewidth="16" tileheight="16" infinite="0" nextlayerid="3" nextobjectid="7">
 <properties>
  <property name="boost_line-capacity" type="float" value="20000"/>
  <property name="cannon-count" type="int" value="3"/>
  <property name="line-capacity" type="float" value="20000"/>
 </properties>
 <tileset firstgid="1" source="tileset.tsx"/>
 <tileset firstgid="289" source="../background/images.tsx"/>
 <tileset firstgid="290" source="../experimental/moebius-1-small.tsx"/>
 <objectgroup id="2" name="game" opacity="0.37">
  <object id="2" name="finish-line" x="825.515" y="18.2982">
   <polygon points="0,0 -5.51514,105.702 115.818,105.702 115.818,-2.29788"/>
  </object>
  <object id="3" name="ball-spawn" x="180" y="126.667">
   <point/>
  </object>
  <object id="6" gid="289" x="-0.333333" y="480.333" width="962" height="480.667"/>
 </objectgroup>
 <layer id="1" name="terrain" width="60" height="30">
  <data encoding="csv">
299,299,299,299,299,299,299,299,299,299,299,299,299,321,299,297,299,297,313,305,297,321,321,321,305,305,299,313,321,297,305,321,299,297,305,305,299,305,305,321,297,321,321,299,313,313,299,313,313,313,313,293,308,0,0,0,0,303,299,299,
299,299,299,299,293,307,307,294,294,294,295,299,313,313,297,299,299,313,321,313,313,299,321,297,297,313,299,313,299,313,299,313,321,321,299,305,297,297,313,321,297,305,313,313,321,297,305,297,299,313,293,308,0,0,0,0,0,298,299,299,
299,299,299,293,308,0,0,0,0,0,306,294,295,299,313,313,321,321,313,299,299,299,299,299,297,299,299,299,297,305,321,321,297,321,305,313,297,299,305,297,299,299,297,305,305,297,321,297,299,321,300,0,0,0,0,0,0,298,299,299,
299,293,294,308,0,0,0,0,0,0,0,0,306,307,294,294,294,294,307,307,307,307,307,307,294,295,299,299,299,313,321,313,321,297,321,321,313,313,299,305,305,305,321,305,305,297,297,321,321,297,301,0,0,0,0,0,0,306,295,299,
299,300,0,0,0,0,0,0,0,0,0,0,0,0,0,0,0,0,0,0,0,0,0,0,0,306,307,294,295,299,299,297,297,321,321,297,305,297,305,297,305,321,305,297,297,321,299,299,299,299,300,0,0,0,0,0,0,0,298,299,
299,301,0,0,0,0,0,0,0,0,0,0,0,0,0,0,0,0,0,0,0,0,0,0,0,0,0,0,306,295,299,305,321,297,299,299,305,297,305,305,305,321,297,297,297,313,313,321,313,299,301,0,0,0,0,0,0,0,303,299,
299,300,0,0,0,0,0,0,0,0,0,0,0,0,0,0,0,0,0,0,0,0,0,0,0,0,0,0,0,306,294,295,321,313,305,305,313,297,321,297,299,321,299,299,299,297,321,299,305,299,300,0,0,0,0,0,0,0,303,299,
299,301,0,0,0,0,0,0,0,0,0,0,0,0,0,0,0,0,0,0,0,0,0,0,0,0,0,0,0,0,0,306,307,295,313,299,313,321,313,305,299,305,313,299,321,305,297,299,313,299,300,0,0,0,0,0,0,0,298,299,
299,300,0,0,0,0,0,0,0,0,0,0,0,0,0,0,0,0,0,0,0,0,0,0,0,0,0,0,0,0,0,0,0,306,295,299,297,313,299,297,305,313,299,321,297,313,313,305,313,299,301,0,0,0,0,0,0,0,298,299,
299,301,0,0,0,0,0,0,0,0,0,0,0,0,0,0,0,0,0,0,0,0,0,0,0,0,0,0,0,0,0,0,0,0,303,299,299,305,321,305,297,297,313,297,305,297,297,305,321,299,300,0,0,0,0,0,0,0,298,299,
299,300,0,0,0,0,0,0,0,0,0,0,0,0,0,0,0,0,0,0,0,0,0,0,0,0,0,0,0,0,0,0,0,0,306,294,307,307,307,295,299,299,299,299,321,299,305,297,305,299,301,0,0,0,0,0,0,0,303,299,
299,301,0,0,0,0,0,0,0,0,0,0,0,0,0,0,0,0,0,0,0,0,0,0,0,0,0,0,0,0,0,0,0,0,0,0,0,0,0,306,307,307,307,294,307,307,294,307,307,307,308,0,0,0,0,0,0,0,303,299,
299,300,0,0,0,0,0,0,0,0,0,0,0,0,0,0,0,0,0,0,0,0,0,0,0,0,0,0,0,0,0,0,0,0,0,0,0,0,0,0,0,0,0,0,0,0,0,0,0,0,0,0,0,0,0,0,0,0,306,295,
299,300,0,0,0,0,0,0,0,0,0,0,0,0,0,0,0,0,0,0,0,0,0,0,0,0,0,0,0,0,0,0,0,0,0,0,0,0,0,0,0,0,0,0,0,0,0,0,0,0,0,0,0,0,0,0,0,0,0,298,
299,301,0,0,0,0,0,0,0,0,0,0,0,0,0,0,0,0,0,0,0,0,0,0,0,0,0,0,0,0,0,0,0,0,0,0,0,0,0,0,0,0,0,0,0,0,0,0,0,0,0,0,0,0,0,0,0,0,0,298,
299,301,0,0,0,0,0,0,0,0,0,0,0,0,0,0,0,0,0,0,0,0,0,0,0,0,0,0,0,0,0,0,0,0,0,0,0,0,0,0,0,0,0,0,0,0,0,0,0,0,0,0,0,0,0,0,0,0,0,298,
299,300,0,0,0,0,0,0,0,0,0,0,0,0,0,0,0,0,0,0,0,0,0,0,0,0,0,0,0,0,0,0,0,0,0,0,0,0,0,0,0,0,0,0,0,0,0,0,0,0,0,0,0,0,0,0,0,0,0,298,
299,300,0,0,0,0,0,0,0,0,0,0,0,0,0,0,0,0,0,0,0,0,0,0,0,0,0,0,0,0,0,0,0,0,0,0,0,0,0,0,0,0,0,0,0,0,0,0,0,0,0,0,0,0,0,0,0,0,0,303,
299,301,0,0,0,0,0,0,0,0,0,0,0,0,0,0,0,0,0,0,0,0,0,0,0,0,0,0,0,0,0,0,0,0,0,0,0,0,0,0,0,0,0,0,0,0,0,0,0,0,0,0,0,0,0,0,0,0,0,298,
299,301,0,0,0,0,0,0,0,0,0,0,0,0,0,0,0,0,0,0,0,0,0,0,290,310,310,310,291,310,291,292,0,0,0,0,0,0,0,0,0,0,0,0,0,0,0,0,0,0,0,0,0,0,0,0,0,0,0,303,
299,301,0,0,0,0,0,0,0,0,0,0,0,0,0,0,0,0,0,0,0,0,0,290,311,299,299,299,299,299,299,301,0,0,0,0,0,0,0,0,0,0,0,0,0,0,0,0,0,0,0,0,0,0,0,0,0,0,0,298,
299,300,0,0,0,0,0,0,0,0,0,0,0,0,0,0,0,0,0,0,0,0,0,298,299,297,299,299,299,299,299,301,0,0,0,0,0,0,0,0,0,0,0,0,0,0,0,0,0,0,0,0,0,0,0,0,0,0,0,303,
299,301,0,0,0,0,0,0,0,0,0,0,0,0,0,0,0,0,0,0,0,0,0,298,299,305,305,297,305,313,299,309,310,310,291,291,310,310,310,292,0,0,0,0,0,0,0,0,0,0,0,0,0,0,0,0,0,0,0,303,
299,300,0,0,0,0,0,0,0,0,0,0,0,0,0,0,0,0,0,0,0,0,0,303,313,321,297,299,305,297,313,313,321,299,297,305,297,313,299,309,310,291,310,291,310,291,292,0,0,0,0,0,0,0,0,0,0,0,0,298,
299,301,0,0,0,0,0,0,0,0,0,0,0,0,0,0,0,0,0,0,0,0,0,298,305,313,297,313,305,313,313,297,321,297,297,313,313,321,321,321,305,305,305,299,313,299,309,310,292,0,0,0,0,0,0,0,0,0,0,303,
299,300,0,0,0,0,0,0,0,0,0,0,0,0,0,0,0,0,0,0,0,290,310,311,305,321,305,321,321,321,299,299,321,313,305,297,321,299,297,305,313,305,321,297,313,297,305,313,309,310,291,292,0,0,0,0,0,0,0,303,
299,300,0,0,0,0,0,0,0,0,0,0,0,0,0,290,310,291,310,291,310,311,299,313,297,321,297,313,313,305,297,313,313,321,305,299,321,299,297,321,305,297,297,321,321,299,297,321,299,299,305,309,310,292,0,0,0,0,0,303,
299,301,0,0,0,0,0,0,0,0,0,290,291,310,310,311,321,305,321,313,321,313,305,297,321,313,313,299,321,297,313,321,321,297,313,305,305,305,321,299,321,297,321,321,297,297,313,305,299,321,299,321,321,309,291,292,0,0,290,311,
299,309,310,291,291,291,291,310,310,310,291,311,297,313,313,313,299,299,321,305,297,297,299,299,305,299,305,297,321,321,321,299,299,321,299,321,297,297,313,299,313,305,321,321,299,297,305,299,313,321,297,321,305,297,297,309,310,310,311,297,
299,299,299,299,299,299,299,299,299,299,299,321,299,313,305,305,297,321,321,305,299,299,313,321,299,299,305,297,299,313,299,299,299,297,297,321,299,305,299,297,321,313,321,299,297,305,305,321,299,305,299,299,321,305,299,297,313,299,313,297
</data>
 </layer>
</map>
