<?xml version="1.0" encoding="UTF-8"?>
<map version="1.10" tiledversion="1.12.2" orientation="orthogonal" renderorder="right-down" width="60" height="30" tilewidth="16" tileheight="16" infinite="0" nextlayerid="3" nextobjectid="6">
 <properties>
  <property name="boost_line-capacity" type="float" value="20000"/>
  <property name="cannon-count" type="int" value="3"/>
  <property name="line-capacity" type="float" value="20000"/>
 </properties>
 <tileset firstgid="1" source="tileset.tsx"/>
 <layer id="1" name="terrain" width="60" height="30">
  <data encoding="csv">
7,8,8,8,26,8,26,26,9,54,54,53,53,15,53,15,53,15,54,15,15,15,15,15,54,54,15,15,54,15,15,15,15,53,15,53,53,53,53,15,53,53,54,15,7,9,54,53,54,53,54,15,53,54,15,53,53,15,15,53,
16,0,0,0,0,0,0,0,90,26,8,26,8,26,8,26,26,8,26,8,26,26,26,8,26,8,26,8,8,26,8,26,26,26,26,8,8,26,8,26,26,8,8,8,91,90,8,9,15,53,53,53,54,54,53,53,54,54,15,15,
16,0,0,0,0,0,0,0,0,0,0,0,0,0,0,0,0,0,0,0,0,0,0,0,0,0,0,0,0,0,0,0,0,0,0,0,0,0,0,0,0,0,0,0,0,0,0,90,8,9,15,53,15,54,53,53,53,15,15,15,
16,0,0,0,0,0,0,0,0,0,0,0,0,0,0,0,0,0,0,0,0,0,0,0,0,0,0,0,0,0,0,0,0,0,0,0,0,0,0,0,0,0,0,0,0,0,0,0,0,20,53,15,15,53,53,54,53,54,54,15,
18,0,0,0,0,0,0,0,0,0,0,0,0,0,0,0,0,0,0,0,0,0,0,0,0,0,0,0,0,0,0,0,0,0,0,0,0,0,0,0,0,0,0,0,0,0,0,0,0,90,26,8,9,54,54,15,15,15,15,53,
18,0,0,0,0,0,0,0,0,0,0,0,0,0,0,0,0,0,0,0,0,0,0,0,0,0,0,0,0,0,0,0,0,0,0,0,0,0,0,0,0,0,0,0,0,0,0,0,0,0,0,0,90,26,9,15,54,54,54,53,
18,0,0,0,0,0,0,0,0,0,0,0,0,0,0,0,0,0,0,0,0,0,0,0,0,0,0,0,0,0,0,0,0,0,0,0,0,0,0,0,0,0,0,0,0,0,0,0,0,0,0,0,0,0,90,9,54,15,53,53,
16,0,0,0,0,0,0,0,0,0,0,0,0,0,0,0,0,0,0,0,0,0,0,0,0,0,0,0,0,0,0,0,0,0,0,0,0,0,0,0,0,0,0,0,0,0,0,0,0,0,0,0,0,0,0,90,9,53,54,15,
18,0,0,0,0,0,0,0,0,0,0,0,0,0,0,0,0,0,0,0,0,0,0,0,0,0,0,0,0,0,0,0,0,0,0,0,0,0,0,0,0,0,0,0,0,0,0,0,0,0,0,0,0,0,0,0,90,9,53,53,
29,80,0,0,0,0,0,0,0,0,0,0,0,0,0,0,0,0,0,0,0,0,0,0,0,0,0,0,0,0,0,0,0,0,0,0,0,0,0,0,0,0,0,0,0,0,0,0,0,0,0,0,0,0,0,0,0,14,53,53,
15,16,0,0,0,0,0,0,0,0,0,0,0,0,0,0,0,0,0,0,0,0,0,0,0,0,0,0,0,0,0,0,0,0,0,0,0,0,0,0,0,0,0,0,0,0,0,0,0,0,0,0,0,0,0,0,0,20,53,54,
53,29,80,0,0,0,0,0,0,0,0,0,0,0,0,0,0,0,0,0,0,0,0,0,0,0,0,0,0,0,0,0,0,0,0,0,0,0,0,0,0,0,0,0,0,0,0,0,0,0,0,0,0,0,0,0,0,14,15,15,
53,54,18,0,0,0,0,0,0,0,0,0,0,0,0,0,0,0,0,0,0,0,0,0,0,0,0,0,0,0,0,0,0,0,0,0,0,0,0,0,0,0,0,0,0,0,0,0,0,0,0,0,0,0,0,0,0,90,9,53,
53,53,18,0,0,0,0,0,0,0,0,0,0,0,0,0,0,0,0,0,0,0,0,0,0,0,0,0,0,0,0,0,0,0,0,0,0,0,0,0,0,0,0,0,0,0,0,0,0,0,0,0,0,0,0,0,0,0,20,54,
53,53,29,80,0,0,0,0,0,0,0,0,0,0,0,0,0,0,0,0,0,0,0,0,0,0,0,0,0,0,0,0,0,0,0,0,0,0,0,0,0,0,0,0,0,0,0,0,0,0,0,0,0,0,0,0,0,0,14,54,
54,15,53,29,80,0,0,0,0,0,0,0,0,0,0,0,0,0,0,0,0,0,0,0,0,0,0,0,0,0,0,0,0,0,0,0,0,0,0,0,0,0,0,0,0,0,0,0,0,0,0,0,0,0,0,0,0,0,14,54,
54,54,15,54,29,80,0,0,0,0,0,0,0,0,0,0,0,0,0,0,0,0,0,0,0,0,0,0,0,0,0,0,0,0,0,0,0,0,0,0,0,0,0,0,0,0,0,0,0,0,0,0,0,0,0,0,0,0,20,53,
54,54,54,54,15,29,80,0,0,0,0,0,0,0,0,0,0,0,0,0,0,0,0,0,0,0,0,0,0,0,0,0,0,0,0,0,0,0,0,0,0,0,0,0,0,0,0,0,0,0,0,0,0,0,0,0,0,0,20,54,
15,53,53,53,15,54,29,80,0,0,0,0,0,0,0,0,0,0,0,0,0,0,0,0,0,0,0,0,0,0,0,0,0,0,0,0,0,0,0,0,0,0,0,0,0,0,0,0,0,0,0,0,0,0,0,0,0,0,14,15,
15,53,54,54,54,15,15,29,80,0,0,0,0,0,0,0,0,0,0,0,0,0,0,0,0,0,0,0,0,0,0,0,0,0,0,0,0,0,0,0,0,0,0,0,0,0,0,0,0,0,0,0,0,0,0,0,0,0,20,15,
54,53,54,15,54,54,15,53,29,4,80,0,0,0,0,0,0,0,0,0,0,0,0,0,0,0,0,0,0,0,0,0,0,0,0,0,0,0,0,0,0,0,0,0,0,0,0,0,0,0,0,0,0,0,0,0,0,0,14,53,
15,54,53,53,54,15,15,54,53,53,29,30,80,0,0,0,0,0,0,0,0,0,0,0,0,0,0,0,0,0,0,0,0,0,0,0,0,0,0,0,0,0,0,0,0,0,0,0,0,0,0,0,0,0,0,0,0,0,14,54,
54,53,54,54,54,54,15,53,53,15,53,15,29,80,0,0,0,0,0,0,0,0,0,0,0,0,0,0,0,0,0,0,0,0,0,0,0,0,0,0,0,0,0,0,0,0,0,0,0,0,0,0,0,0,0,0,0,0,14,54,
53,15,54,15,53,53,54,15,53,15,53,53,15,29,4,80,0,0,0,0,0,0,0,0,0,0,0,0,0,0,0,0,0,0,0,0,0,0,0,0,0,0,0,0,0,0,0,0,0,0,0,0,0,0,0,0,0,0,14,54,
54,15,54,54,53,54,53,15,15,53,15,54,53,15,54,29,30,80,0,0,0,0,0,0,0,0,0,0,0,0,0,0,0,0,0,0,0,0,0,0,0,0,0,0,0,0,0,0,0,0,0,0,0,0,0,0,0,0,20,54,
15,15,15,53,15,15,54,54,53,54,15,54,54,54,54,54,54,29,4,30,4,4,30,30,30,30,30,30,80,0,0,0,0,0,0,0,0,0,0,0,0,0,0,0,0,0,0,0,0,0,0,0,0,0,0,0,0,0,20,53,
54,54,15,15,15,15,54,53,15,53,15,54,53,15,53,15,53,54,54,54,54,54,15,54,54,54,53,15,29,4,4,30,80,0,0,0,0,0,0,0,0,0,0,0,0,0,0,0,0,0,0,0,0,0,0,0,0,0,20,15,
54,53,54,15,15,54,53,54,15,15,54,53,54,15,53,15,54,54,15,15,53,53,53,53,53,53,54,54,15,53,15,54,29,4,80,0,0,0,0,0,0,0,0,0,0,0,0,0,0,0,0,0,0,0,0,0,0,0,14,54,
53,15,54,15,15,15,53,54,53,54,53,15,53,54,53,15,15,54,54,15,54,54,54,54,53,15,54,54,54,15,53,53,54,15,29,4,80,0,0,0,0,0,0,0,0,0,0,0,0,0,0,0,0,0,0,0,0,0,14,54,
53,54,53,53,53,54,53,54,53,54,54,54,54,15,53,54,53,15,53,53,15,53,53,54,54,53,15,15,15,54,53,53,53,54,54,53,29,30,30,4,30,4,4,30,4,4,4,4,4,30,30,30,30,4,4,4,30,4,31,53
</data>
 </layer>
 <objectgroup id="2" name="game">
  <object id="2" name="finish-line" x="898.972" y="341.278">
   <polygon points="0,0 -1.33333,122.667 28,122.667 28,-2.66667"/>
  </object>
  <object id="3" name="ball-spawn" x="37.3333" y="58.6667">
   <point/>
  </object>
 </objectgroup>
</map>
