<?xml version="1.0" encoding="UTF-8"?>
<map version="1.10" tiledversion="1.12.2" orientation="orthogonal" renderorder="right-down" width="60" height="30" tilewidth="16" tileheight="16" infinite="0" nextlayerid="3" nextobjectid="6">
 <properties>
  <property name="boost_line-capacity" type="float" value="20000"/>
  <property name="cannon-count" type="int" value="3"/>
  <property name="line-capacity" type="float" value="20000"/>
 </properties>
 <tileset firstgid="1" source="tileset.tsx"/>
 <layer id="1" name="terrain" width="60" height="30">
  <data encoding="csv">
19,19,19,19,19,19,19,19,19,19,19,19,19,19,19,19,19,19,19,19,19,19,19,19,19,19,19,19,19,19,19,19,19,19,19,19,19,19,19,19,19,19,19,19,19,19,19,19,19,19,19,19,19,19,19,19,19,19,19,19,
19,19,19,19,19,19,19,19,19,19,19,19,19,19,19,19,19,19,79,30,30,30,4,80,19,19,79,80,19,19,19,19,19,19,19,19,19,19,19,19,19,19,19,19,19,19,19,19,19,19,19,19,19,19,19,19,19,19,19,19,
19,19,19,19,19,19,19,19,19,19,19,19,19,19,19,19,79,30,31,15,54,54,54,29,30,30,73,91,79,30,80,19,19,19,19,19,19,19,19,19,19,19,19,19,19,19,19,19,19,19,19,19,19,19,19,19,19,19,19,19,
19,19,19,19,19,19,19,19,19,19,19,19,19,19,19,19,14,53,54,54,54,15,54,54,15,53,18,19,14,53,16,19,19,19,19,19,19,19,19,19,19,19,19,19,19,19,19,19,19,19,19,19,19,19,19,19,19,19,19,19,
19,19,19,19,19,19,19,19,19,19,19,19,19,19,19,19,14,15,15,54,53,54,15,15,15,54,29,30,31,53,29,4,4,30,4,4,80,19,19,19,19,19,19,19,19,19,19,19,19,19,19,19,19,19,19,19,19,19,19,19,
19,19,19,19,19,19,19,19,19,19,19,19,19,19,19,19,90,9,54,15,53,15,53,53,53,53,15,9,9,54,54,54,15,9,54,54,16,19,19,19,79,4,30,4,4,4,30,30,48,48,49,19,19,19,19,19,19,19,19,19,
19,19,19,19,19,19,19,19,19,19,19,19,19,19,19,19,19,20,53,15,53,53,53,53,53,15,53,53,54,15,9,53,54,15,15,7,91,19,79,4,73,8,26,26,8,26,8,8,19,19,23,19,23,19,19,19,19,19,19,19,
19,19,19,19,19,19,19,19,19,19,19,19,19,19,19,19,19,14,15,53,54,53,54,54,53,15,53,15,9,9,53,15,15,9,7,91,19,79,73,8,91,19,19,19,19,19,19,19,19,19,34,19,34,19,19,19,19,19,19,19,
19,19,19,19,19,19,19,19,19,19,19,19,19,19,19,19,19,20,15,15,53,54,53,15,54,9,53,15,53,9,15,54,54,7,74,80,19,20,16,19,19,19,19,19,19,19,19,19,19,19,34,19,45,19,19,19,19,19,19,19,
19,19,19,19,19,19,19,19,19,19,19,19,19,19,19,19,19,20,53,54,15,15,15,54,53,9,15,54,9,54,53,54,53,29,31,18,19,14,18,19,19,19,19,79,30,4,4,30,80,19,45,19,79,80,19,19,19,19,19,19,
19,19,19,19,19,19,19,19,19,19,19,19,19,19,19,19,19,20,15,15,15,54,15,54,15,9,53,9,54,53,9,15,9,53,9,16,19,20,29,80,79,4,4,31,53,54,53,15,18,19,19,19,14,16,19,19,19,19,19,19,
19,19,19,19,19,19,19,19,19,19,19,19,19,19,19,19,79,31,54,53,15,53,54,15,15,54,53,54,54,53,53,15,9,15,54,18,19,20,53,29,31,54,15,54,15,7,9,7,91,19,19,19,14,18,19,19,19,19,19,19,
19,19,19,19,19,19,19,19,19,19,19,19,19,19,19,19,20,53,53,53,53,54,15,9,53,15,54,15,15,9,15,9,9,15,15,16,19,14,53,15,15,15,7,8,26,91,20,16,19,19,19,19,20,18,19,19,19,19,19,19,
19,19,19,19,19,19,19,19,19,19,19,19,19,19,19,19,20,53,15,54,53,53,54,9,53,15,54,15,54,54,15,53,15,53,53,29,30,31,53,15,15,15,18,19,19,19,20,18,19,19,19,19,90,91,19,19,19,19,19,19,
19,19,19,19,19,19,19,19,19,19,19,19,19,19,19,19,20,15,15,54,54,53,15,15,54,15,54,15,53,15,54,9,9,53,53,7,9,7,9,7,9,54,29,80,79,30,31,18,19,19,19,19,19,19,19,19,19,19,19,19,
19,19,19,19,19,19,19,19,19,19,19,19,19,19,19,19,14,15,53,54,53,54,53,54,54,15,15,54,54,54,15,53,54,15,15,18,14,16,14,16,20,53,54,29,31,53,15,29,80,19,19,19,79,80,19,19,19,19,19,19,
19,19,19,19,19,19,19,19,19,19,19,19,19,19,19,19,90,9,54,54,53,54,15,53,53,53,9,9,9,53,9,15,54,53,53,29,31,29,73,91,90,9,53,54,15,53,54,15,16,19,19,19,20,18,19,19,19,19,19,19,
19,19,19,19,19,19,19,19,19,19,19,19,19,19,19,19,19,14,54,15,15,53,53,15,53,15,15,15,53,53,15,53,54,53,54,54,54,54,18,19,19,90,8,8,26,8,9,53,18,19,79,80,20,18,19,19,19,19,19,19,
19,19,19,19,19,19,19,19,19,19,19,19,19,19,19,19,19,14,54,7,9,53,54,53,15,53,54,15,15,53,53,54,54,53,53,53,15,15,18,19,19,19,19,19,79,80,20,54,29,80,90,91,90,91,19,19,19,19,19,19,
19,19,19,19,19,19,19,19,19,19,19,19,19,19,19,19,19,14,54,16,20,54,15,15,53,53,54,54,53,54,53,15,54,54,15,15,53,53,18,19,19,19,19,19,20,18,14,15,15,16,19,19,19,19,19,19,19,19,19,19,
19,19,19,19,19,19,19,19,19,19,19,19,19,19,19,19,19,90,26,91,14,15,15,54,53,15,54,54,53,53,15,54,53,54,53,53,54,7,91,19,19,19,19,19,20,18,90,9,53,18,19,19,19,19,19,19,19,19,19,19,
19,19,19,19,19,19,19,19,19,19,19,19,19,19,19,19,19,19,19,79,31,15,54,15,54,15,53,53,53,54,54,15,54,53,15,54,7,91,19,19,19,19,19,19,20,16,19,20,54,18,19,19,19,19,19,19,19,19,19,19,
19,19,19,19,19,19,19,19,19,19,19,19,19,19,19,19,19,19,19,20,54,53,54,15,15,15,15,53,54,53,54,53,54,54,53,54,18,19,19,19,19,19,19,79,31,16,19,90,8,91,19,19,19,19,19,19,19,19,19,19,
19,19,19,19,19,19,19,19,19,19,19,19,19,19,19,19,19,19,79,31,54,15,53,15,15,53,53,54,53,53,54,53,53,7,9,15,18,19,19,19,19,19,19,14,15,18,19,19,19,19,19,19,19,19,19,19,19,19,19,19,
19,19,19,19,19,19,19,19,19,19,19,19,19,19,19,19,79,30,31,53,53,53,53,53,53,53,53,15,7,9,53,54,53,29,31,7,91,19,19,19,19,19,19,20,53,18,19,19,19,19,19,19,19,19,19,19,19,19,19,19,
19,19,19,19,19,19,19,19,19,19,19,19,19,19,19,19,20,53,53,53,15,54,54,15,53,53,53,15,29,31,54,54,54,15,53,29,4,4,30,4,30,30,4,31,15,18,19,19,19,19,19,19,19,19,19,19,19,19,19,19,
19,19,19,19,19,19,19,19,19,19,19,19,19,19,19,19,90,8,9,54,53,53,53,15,53,15,15,15,15,15,54,53,7,9,7,8,26,8,8,8,8,26,26,26,9,18,19,19,79,30,80,19,19,19,19,19,19,19,19,19,
19,19,19,19,19,19,19,19,19,19,19,19,19,19,19,19,19,19,90,26,26,8,26,8,26,9,53,53,54,53,15,7,74,73,91,19,19,19,19,19,19,19,19,19,20,16,19,19,90,8,91,19,19,19,19,19,19,19,19,19,
19,19,19,19,19,19,19,19,19,19,19,19,19,19,19,19,19,19,19,19,19,19,19,19,19,90,26,8,26,8,26,91,14,18,19,19,19,19,19,19,19,79,80,79,73,91,19,19,19,19,19,19,19,19,19,19,19,19,19,19,
19,19,19,19,19,19,19,19,19,19,19,19,19,19,19,19,19,19,19,19,19,19,19,19,19,19,19,19,19,19,19,19,90,91,19,19,19,19,19,19,19,90,74,73,91,19,19,19,19,19,19,19,19,19,19,19,19,19,19,19
</data>
 </layer>
 <objectgroup id="2" name="game">
  <object id="2" name="finish-line" x="913.333" y="338.667">
   <polygon points="0,0 -1.33333,122.667 28,122.667 28,-2.66667"/>
  </object>
  <object id="3" name="ball-spawn" x="37.3333" y="58.6667">
   <point/>
  </object>
 </objectgroup>
</map>
