<?xml version="1.0" encoding="UTF-8"?>
<map version="1.10" tiledversion="1.12.2" orientation="orthogonal" renderorder="right-down" width="50" height="20" tilewidth="16" tileheight="16" infinite="0" nextlayerid="6" nextobjectid="27">
 <properties>
  <property name="boost_line-capacity" type="float" value="20000"/>
  <property name="cannon-count" type="int" value="1"/>
  <property name="line-capacity" type="float" value="20000"/>
 </properties>
 <tileset firstgid="1" source="tileset.tsx"/>
 <tileset firstgid="111" source=":/automap-tiles.tsx"/>
 <layer id="1" name="prototype" width="50" height="20">
  <data encoding="csv">
15,15,15,15,15,15,15,15,15,15,15,15,15,15,15,15,15,15,15,15,15,15,15,15,15,15,15,15,15,15,15,15,15,15,15,15,15,15,15,15,15,15,15,15,15,15,15,15,15,15,
15,19,19,19,19,19,19,19,19,19,19,19,19,19,19,19,19,19,19,19,19,19,19,19,19,19,19,15,15,15,15,15,15,15,15,15,15,15,15,15,19,19,19,19,19,19,19,19,19,15,
15,19,19,19,19,19,19,19,19,19,19,19,19,19,19,19,19,19,19,19,19,19,19,19,19,19,19,15,15,15,15,15,15,15,15,15,19,19,19,19,19,19,19,19,19,19,19,19,19,15,
15,19,19,19,19,19,19,19,19,19,19,19,19,19,19,19,19,19,19,19,19,19,19,19,19,19,19,15,15,15,15,15,15,15,19,19,19,19,19,19,19,19,19,19,19,19,19,19,19,15,
15,19,19,19,19,19,19,19,19,19,19,19,19,19,19,19,19,19,19,19,19,19,19,19,19,19,19,15,15,15,15,15,15,19,19,19,19,19,19,19,19,19,19,19,19,19,19,19,19,15,
15,19,19,19,19,19,19,19,19,19,19,19,19,19,19,19,19,19,19,19,19,19,19,19,19,19,19,15,15,15,15,15,19,19,19,19,19,19,19,19,19,19,19,19,19,19,19,19,19,15,
15,19,19,19,19,19,19,19,19,19,19,19,19,19,19,19,19,19,19,19,19,19,19,19,19,19,19,15,15,19,19,19,19,19,19,19,19,19,19,19,19,19,19,19,19,19,19,19,19,15,
15,19,19,19,19,19,19,19,19,19,19,19,19,19,19,19,19,19,19,19,19,19,19,19,19,19,19,15,15,19,19,19,19,19,19,19,19,19,19,19,19,19,19,19,19,19,19,19,19,15,
15,19,19,19,19,19,19,19,19,19,19,19,19,19,19,19,19,19,19,19,19,19,19,19,19,19,19,19,19,19,19,19,19,19,19,19,19,19,19,19,19,19,19,19,15,15,15,15,15,15,
15,19,19,19,19,19,19,19,19,19,19,19,19,19,19,0,0,19,19,19,19,19,19,19,19,19,19,19,19,19,19,19,19,19,19,19,19,19,19,19,19,19,19,15,15,15,15,15,15,15,
15,19,19,19,19,19,19,19,19,19,19,19,19,19,19,0,0,0,0,19,19,19,19,19,19,19,19,19,19,19,19,19,19,19,19,19,19,19,19,19,19,15,15,15,15,15,15,15,15,15,
15,19,19,19,19,19,19,19,19,19,19,19,19,19,0,0,19,0,0,0,19,19,19,19,19,19,19,19,19,19,19,19,19,19,19,19,19,19,19,19,15,15,15,15,15,15,15,15,15,15,
15,19,19,19,19,19,19,19,19,19,19,19,19,19,0,0,19,19,19,19,19,19,19,19,19,19,19,19,19,19,19,19,19,19,19,19,19,19,19,15,15,15,15,15,15,15,15,15,15,15,
15,15,15,15,19,19,19,19,19,19,19,19,19,19,0,0,19,19,19,19,19,19,19,19,19,19,19,19,19,19,19,19,19,19,19,19,19,19,15,15,15,15,15,15,15,15,15,15,15,15,
15,15,15,15,15,19,19,19,19,19,19,19,19,0,0,19,19,19,19,19,19,19,19,19,19,19,19,19,19,19,19,15,15,15,19,19,19,19,15,15,15,15,15,15,15,15,15,15,15,15,
15,15,15,15,15,15,15,19,19,19,19,19,19,0,0,19,19,19,19,19,19,19,19,19,19,19,19,19,19,19,19,15,15,15,19,19,19,15,15,15,15,15,15,15,15,15,15,15,15,15,
15,15,15,15,15,15,15,15,0,0,0,0,0,0,0,19,19,19,19,19,19,19,19,19,19,19,19,19,19,19,15,15,15,15,19,19,15,15,15,15,15,15,15,15,15,15,15,15,15,15,
15,15,15,15,15,15,15,19,19,19,19,19,19,19,19,19,19,19,19,19,19,19,19,19,19,19,19,19,19,19,15,15,15,15,15,15,15,15,15,15,15,15,15,15,15,15,15,15,15,15,
15,15,15,15,15,15,15,19,19,19,19,19,19,19,19,19,19,19,19,19,19,19,19,19,19,19,19,19,19,15,15,15,15,15,15,15,15,15,15,15,15,15,15,15,15,15,15,15,15,15,
15,15,15,15,15,15,15,15,15,15,15,15,15,15,15,15,15,15,15,15,15,15,15,15,15,15,15,15,15,15,15,15,15,15,15,15,15,15,15,15,15,15,15,15,15,15,15,15,15,15
</data>
 </layer>
 <layer id="2" name="terrain" width="50" height="20">
  <data encoding="csv">
7,8,8,8,8,8,8,8,8,8,8,8,8,8,8,8,8,8,8,8,8,8,8,8,8,8,8,9,15,15,15,15,15,15,15,15,15,15,15,7,8,8,8,8,8,8,8,8,8,9,
16,0,0,0,0,0,0,0,0,0,0,0,0,0,0,0,0,0,0,0,0,0,0,0,0,0,79,31,54,15,15,15,15,15,15,53,15,15,53,29,80,0,0,0,0,0,0,0,0,20,
16,0,0,0,0,0,0,0,0,0,0,0,0,0,0,0,0,0,0,0,0,0,0,0,0,0,20,53,54,15,15,15,53,54,54,53,7,8,8,8,91,0,0,0,0,0,0,0,0,20,
16,0,0,0,0,0,0,0,0,0,0,0,0,0,0,0,0,0,0,0,0,0,0,0,0,0,20,15,15,15,15,15,53,7,8,26,91,0,0,0,0,0,0,0,0,0,0,0,0,20,
16,0,0,0,0,0,0,0,0,0,0,0,0,0,0,0,0,0,0,0,0,0,0,0,0,0,20,54,53,15,53,54,54,18,0,0,0,0,0,0,0,0,0,0,0,0,0,0,0,20,
16,0,0,0,0,0,0,0,0,0,0,0,0,0,0,0,0,0,0,0,0,0,0,0,0,0,14,54,7,9,54,7,8,91,0,0,0,0,0,0,0,0,0,0,0,0,0,0,0,20,
16,0,0,0,0,0,0,0,0,0,0,0,0,0,0,0,0,0,0,0,0,0,0,0,0,0,14,53,29,31,7,91,0,0,0,0,0,0,0,0,0,0,0,0,0,0,0,0,0,20,
16,0,0,0,0,0,0,0,0,0,0,0,0,0,0,0,0,0,0,0,0,0,0,0,0,79,31,7,26,26,91,0,0,0,0,0,0,0,0,0,0,0,0,0,0,0,0,0,0,20,
16,0,0,0,0,0,0,0,0,0,0,0,0,0,0,0,0,0,0,0,0,0,0,0,0,90,26,91,0,0,0,0,0,0,0,0,0,0,0,0,0,0,0,79,30,4,30,30,30,31,
16,0,0,0,0,0,0,0,0,0,0,0,0,0,0,0,0,0,0,0,0,0,0,0,0,0,0,0,0,0,0,0,0,0,0,0,0,0,0,0,0,0,79,31,54,53,15,15,15,15,
16,0,0,0,0,0,0,0,0,0,0,0,0,0,0,0,0,0,0,0,0,0,0,0,0,0,0,0,0,0,0,0,0,0,0,0,0,0,0,0,79,30,31,15,54,15,15,15,15,15,
16,0,0,0,0,0,0,0,0,0,0,0,0,0,0,0,0,0,0,0,0,0,0,0,0,0,0,0,0,0,0,0,0,0,0,0,0,0,0,79,31,54,15,15,15,15,15,15,15,15,
29,4,4,30,80,0,0,0,0,0,0,0,0,0,0,0,0,0,0,0,0,0,0,0,0,0,0,0,0,0,0,0,0,0,0,0,79,4,4,31,53,54,53,54,15,15,15,15,15,15,
53,15,54,53,29,80,0,0,0,0,0,0,0,0,0,0,0,0,0,0,0,0,0,0,0,0,0,0,0,0,0,0,0,79,30,4,31,53,54,54,54,15,15,54,15,15,15,15,15,15,
15,15,15,53,15,29,80,0,0,0,0,0,0,0,0,0,0,0,0,0,0,0,0,0,0,0,0,0,0,0,79,4,30,31,15,15,54,53,15,54,15,53,53,53,15,54,54,54,15,15,
15,15,15,15,53,53,29,80,0,0,0,0,0,0,0,0,0,0,0,0,0,0,0,0,0,0,0,0,0,79,31,15,15,15,15,54,54,53,54,53,15,53,54,54,54,53,53,53,15,15,
15,15,15,15,15,54,15,29,80,0,0,0,0,0,0,0,0,0,0,0,0,0,0,0,0,0,0,0,79,31,53,53,54,53,53,15,53,15,15,54,15,53,15,15,53,54,54,54,15,15,
15,15,15,15,15,15,53,53,29,80,0,0,0,0,0,0,0,0,0,0,0,0,0,0,0,0,0,79,31,53,53,15,15,53,54,54,53,54,15,53,54,15,53,54,53,15,53,54,15,15,
15,15,15,15,15,15,15,53,15,29,80,0,0,0,0,0,0,0,0,0,0,0,0,0,0,0,79,31,54,53,53,54,15,15,15,53,15,15,15,15,15,15,15,15,15,15,54,54,15,15,
15,15,15,15,15,15,53,15,15,53,29,30,30,30,30,30,30,30,30,30,30,30,30,30,30,30,31,15,15,53,53,15,15,15,15,15,15,15,15,15,15,15,15,15,15,15,15,15,15,15
</data>
 </layer>
 <objectgroup id="4" name="coords">
  <object id="1" name="ball-spawn" x="34.3257" y="47.3329">
   <point/>
  </object>
  <object id="12" name="no-build" x="481" y="283.944">
   <polygon points="0,0 0.404912,-213.388 121.474,-277.278 192.333,-116.917 137.67,21.7221"/>
  </object>
  <object id="24" name="finish-line" x="761" y="16" width="22" height="111.5"/>
  <object id="26" name="boost" x="482" y="97">
   <polygon points="0,0 -70,67 -88,211 66,203 44,-49"/>
  </object>
 </objectgroup>
</map>
