<?xml version="1.0" encoding="UTF-8"?>
<map version="1.10" tiledversion="1.12.2" orientation="orthogonal" renderorder="right-down" width="60" height="30" tilewidth="16" tileheight="16" infinite="0" nextlayerid="3" nextobjectid="6">
 <properties>
  <property name="boost_line-capacity" type="float" value="20000"/>
  <property name="cannon-count" type="int" value="3"/>
  <property name="line-capacity" type="float" value="20000"/>
 </properties>
 <tileset firstgid="1" source="tileset.tsx"/>
 <layer id="1" name="terrain" width="60" height="30">
  <data encoding="csv">
29,31,7,26,26,8,9,29,30,4,30,4,30,30,30,4,30,30,30,4,30,30,4,4,4,4,31,7,26,8,8,8,26,8,26,26,8,26,8,26,8,9,29,4,4,4,30,30,30,4,4,4,4,30,30,30,4,80,79,80,
9,7,91,0,0,0,90,8,26,8,8,26,26,26,8,8,26,26,8,26,8,26,8,26,8,8,26,91,0,0,0,0,0,0,0,0,0,0,0,0,0,90,26,26,26,26,26,8,26,8,8,8,26,26,8,26,26,91,14,16,
14,18,0,0,0,0,0,0,0,0,0,0,0,0,0,0,0,0,0,0,0,0,0,0,0,0,0,0,0,0,0,0,0,0,0,0,0,0,0,0,0,0,0,0,0,0,0,0,0,0,0,0,0,0,0,0,0,0,20,29,
20,16,0,0,0,0,0,0,0,0,0,0,0,0,0,0,0,0,0,0,0,0,0,0,0,0,0,0,0,0,0,0,0,0,0,0,0,0,0,0,0,0,0,0,0,0,0,0,0,0,0,0,0,0,0,0,0,0,90,9,
20,18,0,0,0,0,0,0,0,0,0,0,0,0,0,0,0,0,0,0,0,0,0,0,0,0,0,0,0,0,0,0,0,0,0,0,0,0,0,0,0,0,79,80,0,0,0,0,0,0,0,0,0,0,0,0,0,0,0,14,
20,18,0,0,0,0,0,0,0,0,0,0,0,0,0,0,0,0,0,0,0,0,0,0,0,0,0,0,0,0,0,0,0,0,0,0,0,0,0,0,0,0,90,91,0,0,0,0,0,0,0,0,0,0,0,0,0,0,0,20,
20,18,0,0,0,0,0,0,0,0,0,0,0,0,0,0,0,0,0,0,0,0,0,0,0,0,0,0,0,0,0,0,0,0,0,0,0,0,0,0,0,0,0,0,0,0,0,0,0,0,0,0,0,0,0,0,0,0,0,20,
20,16,0,0,0,0,0,0,0,0,0,0,0,0,0,0,0,0,0,0,0,0,0,0,0,0,0,0,0,0,79,80,0,0,0,0,0,0,0,0,0,0,0,0,0,0,0,0,0,0,0,0,0,0,0,0,0,0,0,20,
31,16,0,0,0,0,0,79,30,30,30,30,4,30,30,4,4,4,30,80,0,0,0,0,0,0,0,0,0,0,90,91,0,0,0,0,0,0,0,0,0,0,0,0,0,0,0,0,0,0,79,80,0,0,0,0,0,0,0,20,
7,91,0,0,0,0,0,14,15,15,53,53,53,53,15,15,15,54,54,29,80,0,0,0,0,0,0,0,0,0,0,0,0,0,0,0,0,0,0,0,0,0,0,0,0,0,0,0,0,0,90,91,0,0,0,0,0,0,0,14,
18,0,0,0,0,0,0,14,54,15,53,53,53,54,54,54,53,53,53,54,16,0,0,0,0,0,0,0,0,0,0,0,0,0,0,0,0,0,0,0,0,0,0,0,0,0,0,0,0,0,0,0,0,0,0,0,0,0,0,14,
18,0,0,0,0,0,0,20,53,54,15,54,53,53,15,15,53,54,15,53,18,0,0,0,0,0,0,0,0,0,0,0,0,0,0,0,0,0,0,0,0,0,0,0,0,0,0,0,0,0,0,0,0,0,0,0,0,0,0,20,
16,0,0,0,0,0,0,14,53,15,54,53,54,15,15,54,15,54,54,53,18,0,0,0,0,0,0,0,0,0,0,0,0,0,0,0,0,0,0,0,0,0,0,0,0,0,0,0,0,0,0,0,0,0,0,0,0,0,0,20,
18,0,0,0,0,0,0,20,53,15,53,54,15,54,15,15,54,54,15,54,18,0,0,0,0,0,0,0,0,0,0,0,0,0,0,0,0,0,0,0,0,0,79,80,0,0,0,0,0,0,0,0,0,0,0,0,0,0,0,14,
18,0,0,0,0,0,0,20,53,54,53,53,54,53,53,15,15,15,54,53,18,0,0,0,0,0,0,0,0,0,0,0,0,0,0,0,0,0,0,0,0,0,90,91,0,0,0,0,0,0,0,0,79,80,0,0,0,0,0,20,
18,0,0,0,0,0,79,31,15,54,54,15,15,53,54,15,54,54,53,53,29,80,0,0,0,0,0,0,0,0,0,0,0,0,0,0,0,0,0,0,0,0,0,0,0,0,0,0,0,0,0,0,90,91,0,0,0,0,0,14,
16,0,0,0,0,0,20,7,9,53,15,54,15,54,53,53,15,15,53,15,53,29,4,30,4,4,4,4,30,30,4,4,4,80,0,0,0,0,0,0,0,0,0,0,0,0,0,0,0,0,0,0,0,0,0,0,0,0,0,20,
18,0,0,0,0,0,14,29,31,53,54,15,15,54,15,15,15,54,54,53,15,54,54,54,15,15,15,54,53,15,54,54,54,29,80,0,0,0,0,0,0,0,0,0,0,0,0,0,0,0,0,0,0,0,0,0,0,0,0,20,
16,0,0,0,0,79,31,53,15,53,53,53,54,54,54,54,53,53,15,15,15,54,54,15,53,15,15,53,15,54,54,54,7,9,18,0,0,0,0,0,0,0,0,0,0,0,0,0,0,0,0,0,0,0,0,0,0,0,0,14,
16,0,0,0,0,20,54,15,54,15,53,15,54,54,54,54,15,53,54,54,54,53,54,15,53,15,15,54,15,53,53,53,29,31,16,0,0,0,0,0,0,0,0,0,0,0,0,0,0,0,0,0,0,0,0,0,0,0,0,20,
16,0,0,0,0,25,9,54,53,54,54,15,54,54,53,15,54,53,15,15,15,7,26,26,8,8,8,26,8,26,26,8,8,8,91,0,0,0,0,0,0,0,0,0,0,0,0,0,0,0,0,0,0,0,0,0,0,0,0,14,
16,0,0,0,0,0,8,15,9,54,53,7,8,8,26,26,26,26,26,8,8,91,0,0,0,0,0,0,0,0,0,0,0,0,0,0,0,0,0,0,0,0,0,0,0,0,0,0,0,0,0,0,0,0,0,0,0,0,0,20,
18,0,0,0,0,0,0,8,8,26,8,91,0,0,0,0,0,0,0,0,0,0,0,0,0,0,0,0,0,0,0,0,0,0,0,0,0,0,0,0,0,0,0,79,80,0,0,0,0,0,0,0,0,0,0,0,0,0,0,14,
18,0,0,0,0,0,0,0,0,0,0,0,0,0,0,0,0,0,0,0,0,0,0,0,0,0,0,0,0,0,0,0,0,0,0,0,0,0,0,0,0,0,0,90,91,0,0,0,0,0,0,0,0,0,0,0,0,0,0,20,
16,0,0,0,0,0,0,0,0,0,0,0,0,0,0,0,0,0,0,0,0,0,0,0,0,0,0,0,0,0,0,0,0,0,0,0,0,0,0,0,0,0,0,0,0,0,0,0,0,0,0,0,0,0,0,0,0,0,0,20,
16,0,0,0,0,0,0,0,0,0,0,0,0,0,0,0,0,0,0,0,0,0,0,0,0,0,0,0,0,0,0,0,0,0,0,0,0,0,0,0,0,0,0,0,0,0,0,0,0,0,0,0,0,0,0,0,0,0,0,14,
18,0,0,0,0,0,0,0,0,0,0,0,0,0,0,0,0,0,0,0,0,0,0,0,0,0,0,0,0,0,0,0,0,0,0,0,0,0,0,0,0,0,0,0,0,0,0,0,0,0,0,0,0,0,0,0,0,0,0,20,
18,0,0,0,0,0,0,0,0,0,0,0,0,0,0,0,0,0,0,0,0,0,0,0,0,0,0,0,0,0,0,0,0,0,0,0,0,0,0,0,0,0,0,0,0,0,0,0,0,0,0,0,0,0,0,0,0,0,0,20,
29,4,4,80,0,0,0,0,0,0,79,4,30,4,30,4,4,4,30,30,4,4,30,30,4,30,4,4,4,30,4,4,80,0,0,0,0,0,79,30,4,80,0,0,0,0,0,0,0,0,0,0,0,0,0,0,0,0,0,14,
26,26,9,29,4,30,30,4,30,30,31,7,26,8,26,8,26,8,26,26,8,26,8,26,8,8,26,26,8,26,26,9,29,30,30,4,4,4,31,7,9,29,30,30,4,4,4,4,4,4,30,30,30,4,4,30,30,4,30,31
</data>
 </layer>
 <objectgroup id="2" name="game">
  <object id="2" name="finish-line" x="913.333" y="338.667">
   <polygon points="0,0 -1.33333,122.667 28,122.667 28,-2.66667"/>
  </object>
  <object id="3" name="ball-spawn" x="37.3333" y="58.6667">
   <point/>
  </object>
 </objectgroup>
</map>
