<?xml version="1.0" encoding="UTF-8"?>
<map version="1.10" tiledversion="1.12.2" orientation="orthogonal" renderorder="right-down" width="60" height="30" tilewidth="16" tileheight="16" infinite="0" nextlayerid="4" nextobjectid="8">
 <properties>
  <property name="boost_line-capacity" type="float" value="20000"/>
  <property name="cannon-count" type="int" value="3"/>
  <property name="line-capacity" type="float" value="20000"/>
 </properties>
 <tileset firstgid="1" source="tileset.tsx"/>
 <tileset firstgid="289" source="../background/images.tsx"/>
 <tileset firstgid="290" source="../experimental/5tileset-dualgrid-1.tsx"/>
 <tileset firstgid="296" source="../experimental/16_tile_dualgrid_tilesheet-64x.tsx"/>
 <tileset firstgid="312" source="../16_tile_dualgrid_tilesheet-64x-v2.tsx"/>
 <tileset firstgid="321" source="../experimental/bricks-small.tsx"/>
 <objectgroup id="2" name="game" visible="0" opacity="0.37">
  <object id="2" name="finish-line" x="788.182" y="350.298">
   <polygon points="0,0 -5.51514,105.702 115.818,105.702 115.818,-2.29788"/>
  </object>
  <object id="3" name="ball-spawn" x="80" y="132">
   <point/>
  </object>
 </objectgroup>
 <layer id="1" name="terrain" width="60" height="30">
  <data encoding="csv">
1073742119,294,295,2147483942,2684354854,2147483943,295,294,1610613030,1073742119,1073742119,3758096679,2684354854,1610613030,1610613030,3758096678,3221225767,1073742119,3758096679,3221225766,2684354854,295,2684354855,2147483942,536871207,2684354855,3758096678,1073742118,536871206,1073742119,536871206,1610613031,3221225767,3221225766,2147483943,2684354854,536871207,2147483943,1073742118,294,2684354854,3758096678,1610613030,2147483942,1610613030,2684354854,1610613030,1610613030,536871206,1610613030,294,536871207,3758096678,3758096679,3758096679,1610613030,3758096679,1073742118,2147483942,2147483942,
3758096679,3221225766,3758096678,2684354854,3758096679,294,3221225766,1610613030,3221225766,1610613031,295,3758096679,3758096678,1073742118,3221225766,294,2684354855,294,3221225766,1073742119,294,3221225767,1073742119,1073742118,2684354854,295,2684354853,2684354852,2684354852,536871204,2684354852,536871204,536871204,536871204,2684354852,536871204,536871204,2684354852,2684354852,2684354852,536871204,536871204,2684354852,536871204,2684354852,2684354852,536871204,536871204,536871204,2684354852,536871204,3221225765,1073742118,295,3758096678,3758096678,536871206,3221225766,1610613030,3221225766,
1610613031,3758096679,536871206,3221225766,2684354855,3221225766,294,1073742117,536871205,3221225766,294,3758096678,295,294,294,1610613030,2147483943,3758096678,3221225766,2684354854,3758096679,3758096679,1073742118,294,2684354854,3758096678,3758096677,3758096676,2684354850,0,0,0,0,0,0,0,0,0,0,0,0,0,0,0,0,0,0,0,0,0,0,1073742114,2684354852,2684354852,2684354852,3221225765,1073742118,1073742119,2147483943,1073742119,
2684354854,1610613030,2147483943,1610613031,1073742117,2684354852,536871204,3758096674,3221225764,2147483942,1610613030,2684354854,1073742117,3221225765,1610613031,1610613030,3758096678,2147483942,2147483942,1610613031,3221225766,2147483942,1073742118,3758096678,3758096678,2684354854,536871206,2684354854,293,2684354850,0,0,0,0,0,0,0,0,0,0,0,0,0,0,0,0,0,0,0,0,0,0,0,0,0,1073742114,536871204,3221225765,536871206,294,
2684354855,3221225767,1073742117,2684354852,3758096674,0,0,0,1073742114,3221225765,536871207,1610613030,1073742116,1610613026,536871205,1073742118,1073742118,1610613030,2147483942,294,294,2684354855,536871207,536871206,2684354854,1610613030,1610613030,3758096678,1073742118,1073742116,0,0,0,0,0,0,0,0,0,0,0,0,0,0,0,0,0,0,0,0,0,0,0,0,0,0,0,3221225764,1610613030,2684354855,
2147483942,1073742118,292,0,0,0,0,0,0,1610613026,2684354852,2684354852,3758096674,0,1610613026,2684354852,3221225765,2684354854,536871207,536871207,3758096678,1610613030,3758096679,1073742118,3758096679,3221225766,3221225766,1073742117,536871204,3221225762,0,0,0,0,0,0,0,0,0,0,0,0,0,0,0,0,0,0,0,0,0,0,0,0,0,0,0,3221225764,3758096679,3758096678,
536871206,2684354854,1073742116,0,0,0,0,0,0,0,0,0,0,0,0,0,1073742114,536871205,2684354854,1610613030,2684354855,1073742119,1610613031,1073742118,1610613031,1073742119,3758096678,3758096677,2147483938,0,0,0,0,0,0,0,0,0,0,0,0,0,0,0,0,0,0,0,0,0,0,0,0,0,0,0,0,3221225764,1073742118,2684354854,
1073742118,1073742118,292,0,0,0,0,0,0,0,0,0,0,0,0,0,0,1610613026,3221225765,3758096678,3758096678,3758096678,2684354855,1073742119,3221225766,2684354855,2684354854,2147483942,292,0,0,0,0,0,0,0,0,0,0,0,0,0,0,0,0,0,0,0,0,0,0,0,0,0,0,0,0,2147483940,294,3221225766,
2684354854,1073742118,1073742116,0,0,0,0,0,0,0,0,0,0,0,0,0,0,0,1073742114,536871205,1073742118,295,2147483942,3758096678,3221225766,1610613030,3758096678,2147483942,1073742116,0,0,0,0,0,0,0,0,0,0,0,0,0,0,0,0,0,0,0,0,0,0,0,0,0,0,0,0,2147483940,3758096678,3221225766,
1610613030,2684354854,1073742116,0,0,0,0,0,0,0,0,0,0,0,0,0,0,0,0,1610613026,3221225765,3758096679,2684354854,536871206,536871207,295,2147483942,536871206,3758096677,2147483938,0,0,0,0,0,0,0,0,0,0,0,0,0,0,0,0,0,0,0,0,0,0,0,0,0,0,0,2147483940,536871207,1610613031,
3221225766,536871206,292,0,0,0,0,0,0,0,0,0,0,0,0,0,0,0,0,0,1610613026,3221225765,1073742118,3758096678,3758096678,2684354854,1073742118,1073742118,2147483942,292,0,0,0,0,0,0,0,0,0,0,0,0,0,0,0,0,0,0,0,0,0,0,0,0,0,0,0,2147483940,3221225767,536871207,
3758096678,1073742118,1073742116,0,0,0,0,0,0,0,0,0,0,0,0,0,0,0,0,0,0,1073742114,2684354852,3221225765,536871206,3758096678,2147483942,1610613030,1073742118,292,0,0,0,0,0,0,0,0,0,0,0,0,0,0,0,0,0,0,0,0,0,0,0,0,0,0,290,1610613029,1073742118,294,
3221225766,294,292,0,0,0,0,0,0,0,0,0,0,0,0,0,0,0,0,0,0,0,0,1610613026,536871204,2684354852,2684354852,536871204,2684354852,3221225762,0,0,0,0,0,0,0,0,0,0,0,0,0,0,0,0,0,0,0,0,0,0,0,0,0,0,2147483940,536871207,2684354855,1610613030,
1610613030,3221225766,292,0,0,0,0,0,0,0,0,0,0,0,0,0,0,0,0,0,0,0,0,0,0,0,0,0,0,0,0,0,0,0,0,0,0,0,0,0,0,0,0,0,0,0,0,0,0,0,0,0,0,0,0,0,2147483940,1610613031,2147483943,536871206,
3758096678,2684354854,1073742116,0,0,0,0,0,0,0,0,0,0,0,0,0,0,0,0,0,0,0,0,0,0,0,0,0,0,0,0,0,0,0,0,0,0,0,0,0,0,0,0,0,0,0,0,0,0,0,0,0,0,0,0,0,3221225764,3221225767,2147483942,2684354854,
1610613030,2684354854,1073742116,0,0,0,0,0,0,0,0,0,0,0,0,0,0,0,0,0,0,0,0,0,0,0,0,0,0,0,0,0,0,0,0,0,0,0,0,0,0,0,0,0,0,0,0,0,0,0,0,0,0,0,0,0,3221225764,295,294,3758096678,
3758096678,536871206,1073742116,0,0,0,0,0,0,0,0,0,0,0,0,0,0,0,0,0,0,0,0,0,0,0,0,0,0,0,0,0,0,0,0,0,0,0,0,0,0,0,0,0,0,0,0,0,0,0,0,0,0,0,0,0,2147483940,1073742118,1073742118,295,
3758096678,536871206,1073742116,0,0,0,0,0,0,0,0,0,0,0,0,0,0,0,0,0,0,0,0,0,0,0,0,0,0,0,0,0,0,0,0,0,0,0,0,0,0,0,0,0,0,0,0,0,0,0,0,0,0,0,0,0,3221225764,1610613030,1610613031,2147483943,
294,2684354854,1073742116,0,0,0,0,0,0,0,0,0,0,0,0,0,0,0,0,0,0,0,0,0,0,0,0,0,0,0,0,0,0,0,0,0,0,0,0,0,0,0,0,0,0,0,0,0,0,0,0,0,0,0,0,0,3221225764,2147483942,2147483943,536871206,
1073742118,3758096678,292,0,0,0,0,0,0,0,0,0,0,0,0,0,0,0,0,0,0,0,0,0,0,0,0,0,0,0,0,0,0,0,0,0,0,0,0,0,0,0,0,0,0,0,0,0,0,0,0,0,0,0,0,0,2147483940,3758096678,2147483943,1610613031,
1610613030,2684354854,292,0,0,0,0,0,0,0,0,0,0,0,0,0,0,0,0,0,0,0,0,0,0,0,0,0,0,0,0,0,0,0,0,0,0,0,0,0,0,0,0,0,0,0,0,0,0,0,0,0,0,0,0,0,2147483940,536871207,1073742119,295,
2147483942,3758096678,292,0,0,0,0,0,0,0,0,0,0,0,0,0,0,0,0,0,0,0,0,0,0,0,0,0,0,0,0,0,0,0,0,0,0,0,0,0,0,0,0,0,0,0,0,0,0,0,0,0,0,0,0,0,2147483940,295,294,1610613030,
3758096678,536871206,292,0,0,0,0,0,0,0,0,0,0,0,0,0,0,0,0,0,0,0,0,0,0,0,0,0,0,0,0,0,0,0,0,0,0,0,0,0,0,0,0,0,0,0,0,0,0,0,0,0,0,0,0,0,2147483940,1073742118,1610613030,2147483943,
3758096678,1610613030,292,0,0,0,0,0,0,0,0,0,0,0,0,0,0,0,0,0,0,0,0,0,0,0,0,0,0,0,0,0,0,0,0,0,0,0,0,0,0,0,0,0,0,0,0,0,0,0,0,0,0,0,0,0,3221225764,1610613031,2147483942,1073742118,
294,1073742118,292,0,0,0,0,0,0,0,0,0,0,0,0,0,0,0,0,0,0,0,0,0,0,0,0,0,0,0,0,0,0,0,0,0,0,0,0,0,0,0,0,0,0,0,0,0,0,0,0,0,0,0,0,0,2147483940,2147483943,3758096678,2147483943,
536871206,2147483942,292,0,0,0,0,0,0,0,0,0,0,0,0,0,0,0,0,0,0,0,0,0,0,0,0,0,0,0,0,0,0,0,0,0,0,0,0,0,0,0,0,0,0,0,0,0,0,0,0,0,0,0,0,0,2147483940,3758096679,536871207,536871206,
536871206,1610613030,292,0,0,0,0,0,0,0,0,0,0,0,0,0,0,0,0,0,0,0,0,0,0,0,0,0,0,0,0,0,0,0,0,0,0,0,0,0,0,0,0,0,0,0,0,0,0,0,0,0,0,0,0,0,2147483940,1610613030,295,295,
294,2147483942,293,3758096676,1610613028,3758096676,3758096676,1610613028,3758096676,1610613028,2684354850,0,0,0,0,0,0,0,0,0,0,0,0,0,0,0,0,0,0,0,0,0,0,0,0,0,0,0,290,3758096676,1610613028,1610613028,1610613028,1610613028,1610613028,2147483938,0,0,0,0,536871202,1610613028,1610613028,2684354850,0,0,2147483940,2684354854,294,3221225767,
294,3221225766,1073742118,1073742118,2684354854,294,536871206,3758096678,3758096678,2684354854,293,1610613028,1610613028,3758096676,3758096676,1610613028,1610613028,3758096676,1610613028,1610613028,3758096676,3758096676,1610613028,1610613028,3758096676,3758096676,3758096676,3758096676,3758096676,1610613028,1610613028,1610613028,1610613028,1610613028,1610613028,3758096676,1610613028,3758096676,2147483941,536871206,1073742118,1610613030,3221225766,3221225766,3221225766,293,3758096676,1610613028,3758096676,1610613028,2147483941,536871206,1610613030,293,3758096676,3758096676,2147483941,3758096679,295,294,
1073742118,536871206,2684354854,2147483942,1073742118,1073742118,2147483942,1610613030,294,3221225766,3758096678,3758096678,536871206,536871206,2684354854,3221225766,2684354854,3221225766,1073742118,1610613030,2684354854,2684354854,1073742118,3221225766,3758096678,536871206,3758096678,2147483942,1073742118,2147483942,2147483942,2684354854,2684354854,2147483942,1610613030,2147483942,3758096678,3758096678,1610613030,294,536871206,2684354854,2147483942,3758096678,1610613030,294,294,1610613030,1610613030,3221225766,2684354854,2147483942,536871206,3758096678,3221225766,536871206,1610613030,3221225766,1610613031,536871206
</data>
 </layer>
</map>
