<?xml version="1.0" encoding="UTF-8"?>
<map version="1.10" tiledversion="1.12.2" orientation="orthogonal" renderorder="right-down" width="30" height="20" tilewidth="16" tileheight="16" infinite="0" nextlayerid="10" nextobjectid="3">
 <tileset firstgid="1" source="cave.tsx"/>
 <tileset firstgid="337" source="../tilesets/mountain.tsx"/>
 <tileset firstgid="447" source="../background/images.tsx"/>
 <tileset firstgid="448" source="bricks-small.tsx"/>
 <tileset firstgid="466" source="tileset.tsx"/>
 <tileset firstgid="551" source="mixed-set-1-small.tsx"/>
 <tileset firstgid="575" source="moebius-1-small.tsx"/>
 <objectgroup id="3" name="game">
  <object id="1" gid="447" x="0.666667" y="319.667" width="479" height="319"/>
 </objectgroup>
 <layer id="9" name="mixed-mountain" width="30" height="20" visible="0">
  <data encoding="csv">
0,0,0,0,0,0,0,0,0,0,0,0,0,0,0,0,0,0,0,0,0,0,0,0,0,0,0,0,0,0,
0,0,0,0,0,0,0,0,0,0,0,0,0,0,0,0,0,0,0,0,0,0,0,0,0,0,0,0,0,0,
0,0,0,0,0,0,0,0,0,0,0,0,0,0,0,0,0,0,0,0,0,0,0,0,0,0,0,0,0,0,
0,0,0,0,0,0,0,0,0,0,0,0,0,0,0,0,0,0,0,0,0,0,0,0,0,0,0,0,0,0,
0,0,0,0,0,0,0,0,0,0,0,0,0,0,0,0,0,0,0,0,0,0,0,0,0,0,0,0,0,0,
0,0,0,0,0,0,0,0,0,0,0,0,0,0,0,0,0,0,0,0,0,0,0,0,0,0,0,0,0,0,
0,0,0,0,0,0,0,0,0,0,0,0,0,0,0,0,0,0,0,0,0,0,0,0,0,0,0,0,0,0,
0,0,0,0,0,0,0,0,0,0,0,0,0,0,0,0,0,0,0,0,0,0,0,0,0,0,0,0,0,0,
0,0,0,0,0,0,0,0,0,0,0,0,0,0,0,0,0,0,0,0,0,0,0,0,0,0,0,0,0,0,
0,0,0,0,0,0,0,0,0,0,0,0,0,0,0,0,0,0,0,0,0,0,0,0,0,0,0,0,0,0,
0,0,0,0,0,0,0,0,0,0,0,0,0,0,0,0,0,0,0,0,0,0,0,0,0,0,0,0,0,0,
0,0,0,0,0,0,0,0,0,0,0,0,0,0,0,0,0,0,0,0,0,0,0,0,0,0,0,0,0,0,
0,0,0,0,0,0,0,0,0,0,0,0,0,0,0,0,0,0,0,0,0,0,0,0,0,0,0,0,0,0,
0,0,0,0,0,0,0,0,0,0,0,0,0,0,0,0,0,0,0,0,0,0,0,0,0,0,0,0,0,0,
0,0,0,0,0,0,0,0,0,0,0,0,0,0,0,0,0,0,0,0,0,0,0,0,0,0,0,0,0,0,
0,0,0,0,0,0,0,0,0,0,0,0,0,0,0,0,0,0,0,0,0,0,0,0,0,0,0,0,0,0,
0,0,0,0,0,0,0,0,0,0,0,0,0,0,0,0,0,0,0,0,0,0,0,0,0,0,0,0,0,0,
0,0,0,0,0,0,0,0,0,0,0,0,0,0,0,0,0,0,0,0,0,0,0,0,0,0,0,0,0,0,
0,0,0,0,0,0,0,0,0,0,0,0,0,0,0,0,0,0,0,0,0,0,0,0,0,0,0,0,0,0,
0,0,0,0,0,0,0,0,0,0,0,0,0,0,0,0,0,0,0,0,0,0,0,0,0,0,0,0,0,0
</data>
 </layer>
 <layer id="7" name="mixed-3" width="30" height="20" visible="0">
  <data encoding="csv">
0,0,0,0,0,0,0,0,0,0,0,0,0,0,0,0,0,0,0,0,0,0,0,0,0,0,0,0,0,0,
0,0,0,0,0,0,0,0,0,0,0,0,0,0,0,0,0,0,0,0,0,0,0,0,0,0,0,0,0,0,
0,0,0,0,0,0,0,0,0,0,0,0,0,0,0,0,0,0,0,0,0,0,0,0,0,0,0,0,0,0,
0,0,0,0,0,0,0,0,0,0,0,0,0,0,0,0,0,0,0,0,0,0,0,0,0,0,0,0,0,0,
0,0,0,0,0,0,0,0,0,0,0,0,0,0,0,0,0,0,0,0,0,0,0,0,0,0,0,0,0,0,
0,0,0,551,567,552,567,552,567,553,0,0,0,0,0,0,0,0,0,0,0,0,0,0,0,0,0,0,0,0,
0,0,551,568,558,558,558,558,558,566,553,0,0,0,0,0,0,0,0,0,0,0,0,0,0,0,0,0,0,0,
0,0,562,558,558,558,558,558,558,558,559,0,0,0,0,0,0,0,0,0,0,0,0,0,0,0,0,0,0,0,
0,0,557,558,558,558,558,558,558,558,566,553,0,0,0,0,0,0,0,0,0,0,0,0,0,0,0,0,0,0,
0,0,562,558,558,558,558,558,558,558,558,560,0,0,0,0,0,0,0,0,0,0,0,0,0,0,0,0,0,0,
0,0,563,556,558,558,558,558,558,558,554,565,0,0,0,0,0,0,0,0,0,0,0,0,0,0,0,0,0,0,
0,551,567,568,558,558,558,558,558,558,559,0,0,0,0,0,0,0,0,0,0,0,0,0,0,0,0,0,0,0,
0,557,558,558,558,558,558,558,558,558,559,0,0,0,0,0,0,0,0,0,0,0,0,0,0,0,0,0,0,0,
0,563,556,558,558,558,558,554,564,564,565,0,0,0,0,0,0,0,0,0,0,0,0,0,0,0,0,0,0,0,
0,0,563,556,558,558,558,559,0,0,0,0,0,0,0,0,0,0,0,0,0,0,0,0,0,0,0,0,0,0,
0,0,0,563,564,556,558,566,567,552,553,0,0,0,0,0,0,0,0,0,0,0,0,0,0,0,0,0,0,0,
0,0,0,0,0,563,564,555,564,555,565,0,0,0,0,0,0,0,0,0,0,0,0,0,0,0,0,0,0,0,
0,0,0,0,0,0,0,0,0,0,0,0,0,0,0,0,0,0,0,0,0,0,0,0,0,0,0,0,0,0,
0,0,0,0,0,0,0,0,0,0,0,0,0,0,0,0,0,0,0,0,0,0,0,0,0,0,0,0,0,0,
0,0,0,0,0,0,0,0,0,0,0,0,0,0,0,0,0,0,0,0,0,0,0,0,0,0,0,0,0,0
</data>
 </layer>
 <layer id="8" name="mixed-4" width="30" height="20" visible="0">
  <data encoding="csv">
578,592,592,592,579,592,592,592,579,592,580,584,584,584,584,584,584,584,584,584,584,584,584,578,592,579,580,584,584,584,
585,0,0,0,0,0,0,0,0,0,591,592,579,579,579,592,592,592,592,579,592,592,579,593,0,0,591,592,579,580,
585,0,0,0,0,0,0,0,0,0,0,0,0,0,0,0,0,0,0,0,0,0,0,0,0,0,0,0,0,583,
586,0,0,0,0,0,0,0,0,0,0,0,0,0,0,0,0,0,0,0,0,0,0,0,0,0,0,0,0,588,
585,0,0,0,0,0,0,0,0,0,0,0,0,0,0,0,0,0,0,0,0,0,0,0,0,0,0,0,0,591,
585,0,0,0,0,0,0,0,0,0,0,0,0,0,0,0,0,0,0,0,0,0,0,0,0,0,0,0,0,581,
586,0,0,0,0,0,0,0,0,0,0,0,0,0,0,0,0,0,0,0,0,0,0,0,0,0,0,0,0,589,
585,0,0,0,0,0,0,0,0,0,0,0,0,0,0,0,0,0,0,0,0,0,0,0,0,0,0,0,0,605,
586,0,0,0,0,0,0,0,0,0,0,0,0,0,0,0,0,0,0,0,0,0,0,0,599,602,599,602,575,577,
586,0,0,0,0,0,0,0,0,0,0,0,0,0,0,0,0,0,0,0,0,0,0,0,0,0,0,0,583,586,
586,0,0,0,0,0,0,0,0,0,0,0,0,0,0,0,0,0,0,0,0,0,0,0,0,0,0,0,583,585,
585,0,0,0,0,0,0,0,0,0,0,0,0,0,0,0,0,0,0,0,0,0,0,0,0,0,0,0,583,586,
586,0,0,0,0,0,0,0,0,0,0,0,0,0,0,0,0,0,0,0,0,0,0,0,605,575,576,577,588,585,
585,0,0,0,0,0,0,0,0,0,0,0,0,0,0,0,0,0,0,0,0,599,595,576,576,596,584,586,588,586,
586,599,602,599,602,0,0,0,0,0,0,581,0,0,0,0,0,0,0,0,599,576,584,584,584,584,584,594,596,585,
585,0,0,0,0,0,0,0,0,0,0,605,0,0,0,0,0,0,0,575,576,584,584,584,584,584,584,584,584,586,
586,0,0,0,0,0,0,0,0,0,0,581,0,0,0,0,0,0,0,583,584,584,584,584,584,578,579,579,580,586,
586,0,0,0,0,0,0,0,0,0,0,605,0,0,0,0,0,0,575,596,584,584,584,578,579,593,0,0,588,586,
594,576,576,595,576,576,595,595,577,575,576,576,576,576,595,576,576,576,596,584,584,584,584,586,0,0,0,0,583,586,
584,584,584,584,584,584,584,584,594,596,584,584,578,579,579,592,579,579,580,578,580,584,584,594,595,576,576,576,596,586
</data>
 </layer>
 <layer id="1" name="terrain" width="30" height="20" visible="0">
  <data encoding="csv">
351,351,351,351,351,351,351,351,351,351,0,0,0,0,0,0,0,0,0,0,0,0,0,0,0,0,0,0,0,0,
351,351,351,339,366,341,351,351,351,351,0,0,0,0,0,0,0,0,0,0,0,0,0,0,0,0,0,0,0,0,
351,365,366,366,340,366,367,351,351,343,363,0,0,0,0,0,0,0,0,0,0,0,0,0,0,0,0,0,0,0,
351,351,351,351,351,351,351,351,351,352,0,0,0,0,0,0,0,0,0,0,0,0,0,0,0,0,0,0,0,0,
351,351,351,351,351,351,351,351,351,365,341,0,0,0,0,0,0,0,0,0,0,0,0,0,0,0,0,0,0,0,
351,351,351,351,351,351,351,351,351,351,365,341,0,0,0,0,0,0,0,0,0,0,0,0,0,0,0,0,0,0,
351,351,351,351,351,351,351,351,351,351,351,354,0,0,0,0,0,0,0,0,0,0,0,0,0,0,0,0,0,0,
351,351,351,351,351,351,351,351,351,351,351,354,0,0,0,0,0,0,0,0,0,0,0,0,0,0,0,0,0,0,
351,351,351,351,351,351,351,351,351,351,351,354,0,0,0,0,0,0,0,0,0,0,0,0,0,0,0,0,0,0,
351,351,351,351,351,351,351,351,351,351,351,354,0,0,0,0,0,0,0,0,0,0,0,0,0,0,0,0,0,0,
351,351,351,351,351,351,351,351,351,351,351,352,0,0,0,0,0,0,0,0,0,0,0,0,0,0,0,0,0,0,
351,351,351,351,351,351,351,351,351,351,351,352,0,0,0,0,0,0,0,0,0,0,0,0,0,0,0,0,0,0,
351,351,351,351,351,351,351,351,351,351,351,352,0,0,0,0,0,0,0,0,0,0,0,0,0,0,0,0,0,0,
345,351,351,351,351,351,351,351,351,351,351,354,0,0,0,0,0,0,0,0,0,0,0,0,0,0,0,0,0,0,
356,351,351,351,351,351,351,351,351,351,351,352,0,0,0,0,0,0,0,0,0,0,0,0,0,0,0,0,0,0,
361,345,351,351,351,351,351,351,351,343,345,352,0,0,0,0,0,0,0,0,0,0,0,0,0,0,0,0,0,0,
0,356,351,351,351,351,351,343,345,365,367,352,0,0,0,0,0,0,0,0,0,0,0,0,0,0,0,0,0,0,
0,361,345,351,343,344,345,365,367,351,351,354,0,0,0,0,0,0,0,0,0,0,0,0,0,0,0,0,0,0,
0,0,350,351,365,341,361,344,362,345,343,363,0,0,0,0,0,0,0,0,0,0,0,0,0,0,0,0,0,0,
0,0,361,385,362,363,0,0,0,361,363,0,0,0,0,0,0,0,0,0,0,0,0,0,0,0,0,0,0,0
</data>
 </layer>
 <layer id="4" name="brick" width="30" height="20" visible="0">
  <data encoding="csv">
455,455,455,455,455,455,455,455,455,455,455,455,455,455,455,455,455,455,455,455,455,455,455,455,455,455,455,455,455,455,
455,455,455,455,455,455,455,455,455,455,455,455,455,455,455,455,455,455,455,455,455,455,455,455,455,455,455,455,455,455,
455,455,455,455,455,455,455,455,455,455,455,455,455,455,455,455,455,455,455,455,455,455,455,455,455,455,455,455,455,455,
455,455,455,455,456,455,455,455,455,455,455,455,455,455,455,455,455,455,455,455,455,455,455,455,455,455,455,455,455,455,
455,456,454,455,456,455,455,455,455,455,455,455,455,455,455,455,455,455,455,455,455,455,455,455,455,455,455,455,455,455,
461,462,454,455,456,454,456,454,455,455,455,455,455,455,455,455,455,455,455,455,455,455,455,455,455,455,455,455,455,455,
449,450,454,0,455,455,456,454,455,455,455,455,455,455,455,455,455,455,455,455,455,455,455,455,455,455,455,455,455,455,
455,456,454,0,461,461,462,454,456,455,455,455,455,455,455,455,455,455,455,455,455,455,455,455,455,455,455,455,455,455,
455,456,460,0,452,452,453,460,462,455,455,455,455,455,455,455,455,455,455,455,455,455,455,455,455,455,455,455,455,455,
461,462,0,458,458,0,459,448,449,455,455,455,455,455,455,455,455,455,455,455,455,455,455,455,455,455,455,455,455,455,
449,0,0,464,464,464,0,0,0,0,455,455,455,455,455,455,455,455,455,455,455,455,455,455,455,455,455,455,455,455,
455,0,0,453,448,450,465,454,455,455,455,455,455,455,455,455,455,455,455,455,455,455,455,455,455,455,455,455,455,455,
461,0,0,465,460,462,448,455,455,455,455,455,455,455,455,455,455,455,455,455,455,455,455,455,455,455,455,455,455,455,
450,463,465,448,449,450,460,461,455,455,455,455,455,455,455,455,455,455,455,455,455,455,455,455,455,455,455,455,455,455,
455,449,450,454,455,456,455,455,455,455,455,455,455,455,455,455,455,455,455,455,455,455,455,455,455,455,455,455,455,455,
455,455,456,448,449,461,461,461,455,455,455,455,455,455,455,455,455,455,455,455,455,455,455,455,455,455,455,455,455,455,
455,455,455,456,448,449,449,449,455,455,455,455,455,455,455,455,455,455,455,455,455,455,455,455,455,455,455,455,455,455,
455,455,455,456,454,455,455,455,455,455,455,455,455,455,455,455,455,455,455,455,455,455,455,455,455,455,455,455,455,455,
455,455,455,455,455,455,455,455,455,455,455,455,455,455,455,455,455,455,455,455,455,455,455,455,455,455,455,455,455,455,
455,455,455,455,455,455,455,455,455,455,455,455,455,455,455,455,455,455,455,455,455,455,455,455,455,455,455,455,455,455
</data>
 </layer>
 <layer id="5" name="green" width="30" height="20" visible="0">
  <data encoding="csv">
550,550,550,550,550,550,550,550,550,550,550,550,550,550,550,550,550,550,550,550,550,550,550,550,550,550,550,550,550,550,
550,550,550,550,550,550,550,550,550,550,550,550,550,550,550,550,550,550,550,550,550,550,550,550,550,550,550,550,550,550,
550,550,550,550,550,550,550,550,550,550,550,550,550,550,550,550,550,550,550,550,550,550,550,550,550,550,550,550,550,550,
550,550,550,474,476,477,550,550,550,550,550,550,550,550,550,550,550,550,550,550,550,550,550,550,550,550,550,550,550,550,
550,474,476,495,479,496,476,477,550,550,550,550,550,550,550,550,550,550,550,550,550,550,550,550,550,550,550,550,550,550,
550,498,479,480,478,520,519,525,550,474,476,477,550,550,550,550,550,550,550,550,550,550,550,550,550,550,550,550,550,550,
550,498,478,520,547,549,498,525,467,543,547,549,550,550,550,550,550,550,550,550,550,550,550,550,550,550,550,550,550,550,
550,498,481,496,476,476,495,496,475,477,539,541,550,550,550,550,550,550,550,550,550,550,550,550,550,550,550,550,550,550,
550,498,479,481,481,481,478,479,478,525,550,466,550,550,550,550,550,550,550,550,550,550,550,550,550,550,550,550,550,550,
550,546,547,519,478,479,481,481,520,524,477,490,550,550,550,550,550,550,550,550,550,550,550,550,550,550,550,550,550,550,
550,550,474,495,479,480,478,480,496,495,525,490,550,550,550,550,550,550,550,550,550,550,550,550,550,550,550,550,550,550,
550,550,498,478,480,479,478,479,481,479,525,490,550,550,550,550,550,550,550,550,550,550,550,550,550,550,550,550,550,550,
550,550,546,519,481,479,480,479,520,519,525,514,550,550,550,550,550,550,550,550,550,550,550,550,550,550,550,550,550,550,
550,550,550,546,519,520,519,480,496,495,525,466,550,550,550,550,550,550,550,550,550,550,550,550,550,550,550,550,550,550,
550,550,550,550,498,496,495,481,479,479,525,514,550,550,550,550,550,550,550,550,550,550,550,550,550,550,550,550,550,550,
550,550,550,474,499,519,520,547,547,547,549,550,550,550,550,550,550,550,550,550,550,550,550,550,550,550,550,550,550,550,
550,550,550,498,496,499,549,550,550,550,550,550,550,550,550,550,550,550,550,550,550,550,550,550,550,550,550,550,550,550,
550,550,550,546,547,549,550,550,550,550,550,550,550,550,550,550,550,550,550,550,550,550,550,550,550,550,550,550,550,550,
550,550,550,550,550,550,550,550,550,550,550,550,550,550,550,550,550,550,550,550,550,550,550,550,550,550,550,550,550,550,
550,550,550,550,550,550,550,550,550,550,550,550,550,550,550,550,550,550,550,550,550,550,550,550,550,550,550,550,550,550
</data>
 </layer>
 <layer id="6" name="mixed-2" width="30" height="20" visible="0">
  <data encoding="csv">
550,550,550,550,550,550,550,550,550,550,550,550,550,550,550,550,550,550,550,550,550,550,550,550,550,550,550,550,550,550,
550,550,550,550,550,550,550,550,550,550,550,550,550,550,550,550,550,550,550,550,550,550,550,550,550,550,550,550,550,550,
550,550,550,550,550,550,550,550,550,550,550,550,550,550,550,550,550,550,550,550,550,550,550,550,550,550,550,550,550,550,
550,550,550,550,474,477,550,550,550,550,550,550,550,550,550,550,550,550,550,550,550,550,550,550,550,550,550,550,550,550,
550,550,550,474,495,496,477,550,474,477,550,550,550,474,476,476,477,550,550,550,550,550,550,550,550,550,550,550,550,550,
550,550,550,546,519,478,525,550,498,496,476,476,476,495,478,478,525,550,550,550,550,550,550,550,550,550,550,550,550,550,
550,550,550,474,495,478,496,476,495,480,480,480,479,481,478,478,525,550,550,550,550,550,550,550,550,550,550,550,550,550,
550,550,550,498,478,478,478,478,478,478,478,481,481,481,520,547,549,550,550,550,550,550,550,550,550,550,550,550,550,550,
550,550,550,546,519,478,478,478,478,480,479,481,480,480,496,477,550,550,550,550,550,550,550,550,550,550,550,550,550,550,
550,550,550,550,498,478,478,478,480,481,478,481,478,478,480,525,550,550,550,550,550,550,550,550,550,550,550,550,550,550,
474,477,550,550,498,478,478,478,481,478,478,481,480,479,478,525,550,550,550,550,550,550,550,550,550,550,550,550,550,550,
495,525,550,550,498,478,478,478,478,479,481,480,520,547,547,549,550,550,550,550,550,550,550,550,550,550,550,550,550,550,
478,525,550,550,546,519,478,478,478,481,520,547,549,550,550,550,550,550,550,550,550,550,550,550,550,550,550,550,550,550,
478,496,476,476,476,495,478,520,547,547,549,550,550,550,550,550,550,550,550,550,550,550,550,550,550,550,550,550,550,550,
547,547,547,547,547,519,478,496,476,476,476,477,550,550,550,550,550,550,550,550,550,550,550,550,550,550,550,550,550,550,
550,550,550,550,550,498,478,478,478,478,478,525,550,550,550,550,550,550,550,550,550,550,550,550,550,550,550,550,550,550,
550,550,550,550,550,498,478,520,547,547,519,496,476,476,476,476,477,550,550,550,550,550,550,550,550,550,550,550,550,550,
474,476,476,476,476,495,520,549,550,550,546,547,547,547,547,547,549,550,550,550,550,550,550,550,550,550,550,550,550,550,
546,547,547,547,547,547,549,550,550,550,550,550,550,550,550,550,550,550,550,550,550,550,550,550,550,550,550,550,550,550,
550,550,550,550,550,550,550,550,550,550,550,550,550,550,550,550,550,550,550,550,550,550,550,550,550,550,550,550,550,550
</data>
 </layer>
</map>
